; FLAVOR:Marlin
; TIME:1274
; Filament used: 1.47636m, 0m
; Layer height: 0.2
; MINX:-39.992
; MINY:-14.994
; MINZ:0.3
; MAXX:39.992
; MAXY:14.994
; MAXZ:8.9
; TARGET_MACHINE.NAME:Unknown
; ZOFFSETPROCESSED
; Generated with Cura_SteamEngine 5.9.1
T0
M82  ; absolute extrusion mode
; FFF
M104 S230 ; Set Hotend Temperature
M140 S70 ; Set Bed Temperature
G28  ; home
G90  ; absolute positioning
; G1 Z10 F1800 ;Go to zero offset
M109 S230 ; Wait for Hotend Temperature
M190 S70 ; Wait for Bed Temperature
G1 E20 F200 ; Feed filament to clear nozzle
G92 E0 ; Zero set extruder position
G1 X168 ; Position for clear nozzle
G1 E20 F200 ; Feed filament to clear nozzle
G4 S3 ; Wait for feed filament
G1 X158 F2000 ; Position for clear nozzle
G1 X168 F2000 ; Position for clear nozzle
G1 X158 F2000 ; Position for clear nozzle
G1 X168 F2000 ; Position for clear nozzle
; G1 X70 Y160 Z23 ; Position for clear nozzle
; G1 E20 F200 ;Feed filament to clear nozzle
; G4 S3 ;Wait for feed filament
; G1 Y160 F2000 ;Position for clear nozzle
; G1 Y135 F2000 ;Position for clear nozzle
; G1 Y160 F2000 ;Position for clear nozzle
; G1 Y135 F2000 ;Position for clear nozzle
; G1 X70 Y70 Z60 F2000 ; Move to the center of bed
G92 E0 ; Zero set extruder position
; START_TRANSFORM SHIFT X:60, Y:60, theta:-45
G92 E0
G92 E0
G1 F2400 E-7
; LAYER_COUNT:44
; LAYER:0
M107
G0 F5100 X70.87813072177386 Y63.14521096271776 Z-0.1 ; adjusted by z offset
G92 Z0.3 ; consider this the original z before offset
; TYPE:SKIRT
G1 F2400 E0
G1 F1800 X69.55796236129856 Y64.21930616334014 E0.08491
G1 X68.4994235098623 Y65.14773736703806 E0.15515
G1 X67.24713740038092 Y66.3179990899018 E0.24067
G1 X66.27981532371773 Y67.28673538012737 E0.30897
G1 X65.12864548394603 Y68.51992960651671 E0.39313
G1 X64.1995071734669 Y69.58058977829653 E0.46348
G1 X63.1275332931881 Y70.90005103199063 E0.54829
G1 X62.29031886426323 Y71.99748075639216 E0.61716
G1 X61.39653589284343 Y73.26885874896557 E0.69469
G1 X60.53457272657703 Y74.58054182806661 E0.773
G1 X59.642203968719606 Y76.04566707868514 E0.85858
G1 X58.910348450191535 Y77.34462223572483 E0.93297
G1 X58.23506147415838 Y78.65347688770113 E1.00645
G1 X57.517348091254036 Y80.16456407909678 E1.08991
G1 X56.94812713239887 Y81.48331822600969 E1.16157
G1 X56.2940533598013 Y83.14572626857927 E1.25069
G1 X55.98363348286041 Y83.88182442779446 E1.29055
G1 X55.37198611713405 Y85.06057143203243 E1.3568
G1 X54.64154481216835 Y86.24073264983278 E1.42605
G1 X54.14939849246251 Y86.90824145127287 E1.46742
G1 X53.12621498008557 Y88.07850317413661 E1.54497
G1 X52.31799192918935 Y88.86409880803488 E1.60121
G1 X51.6370480989067 Y89.43614819401479 E1.64558
G1 X50.59053006275061 Y90.18850980919728 E1.70988
G1 X49.548961774062825 Y90.81571352410975 E1.77054
G1 X48.35819395454468 Y91.40968322030643 E1.83692
G1 X47.604418125799825 Y91.7165675633414 E1.87753
G1 X46.14848526333672 Y92.17972250501859 E1.95375
G1 X45.33106982428507 Y92.37064133593896 E1.99563
G1 X43.83271055495078 Y92.59762261269984 E2.07124
G1 X43.00539562096252 Y92.65843379588189 E2.11262
G1 X41.51764295334602 Y92.65560536875714 E2.18685
G1 X40.70588436854386 Y92.5891373313256 E2.22748
G1 X39.153784983839394 Y92.33811442400437 E2.30592
G1 X38.2232324597979 Y92.10618339977519 E2.35377
G1 X37.048020989465854 Y91.71586045656022 E2.41555
G1 X35.87493083947737 Y91.22159281651082 E2.47906
G1 X34.99670421724368 Y90.76763026298906 E2.52838
G1 X34.09019332376253 Y90.21608697366355 E2.58132
G1 X32.859120417716746 Y89.31028318696359 E2.65757
G1 X31.964630339515764 Y88.52185912594058 E2.71706
G1 X31.162771249650216 Y87.70020104620181 E2.77434
G1 X30.645169085821667 Y87.09350342794374 E2.81412
G1 X29.746436366933562 Y85.85677366764848 E2.8904
G1 X29.292473813411796 Y85.10865469315311 E2.93405
G1 X28.61506551703509 Y83.76232338177392 E3.00925
G1 X28.193629875447904 Y82.71156270493071 E3.06573
G1 X27.89523081378718 Y81.7824243944516 E3.11441
G1 X27.589053577533406 Y80.48771187809902 E3.18079
G1 X27.418640843267443 Y79.35704813498174 E3.23784
G1 X27.32742406849438 Y78.092034103439 E3.30111
G1 X27.3267169617132 Y77.29229633391702 E3.34101
G1 X27.447632221296097 Y75.74161116277492 E3.41861
G1 X27.577739869034424 Y74.92136729659853 E3.46004
G1 X27.930586152846505 Y73.44987808494932 E3.53554
G1 X28.19433698222909 Y72.63741239336596 E3.57815
G1 X28.74800159189816 Y71.30027347014222 E3.65036
G1 X29.30944437616028 Y70.2127432406773 E3.71142
G1 X29.717444988904916 Y69.54169890533127 E3.7506
G1 X30.627491416292003 Y68.28234172803803 E3.82811
G1 X31.144386473339363 Y67.67210857587405 E3.86801
G1 X32.22979538246072 Y66.58245702606557 E3.94474
G1 X32.8456853888742 Y66.05141983339446 E3.98532
G1 X34.11635627466643 Y65.12157441613417 E4.06387
G1 X34.87366763731721 Y64.65841947445698 E4.10816
G1 X36.041100933056214 Y64.05667160366721 E4.17368
G1 X37.004887475813476 Y63.64867099092258 E4.2259
G1 X38.52375284180218 Y63.05045865403877 E4.30734
G1 X39.84745673618339 Y62.47770216127766 E4.3793
G1 X41.37268606320278 Y61.75291771056145 E4.46355
G1 X42.63275034727721 Y61.102379471869824 E4.53429
G1 X43.99746643496724 Y60.33304729393886 E4.61245
G1 X45.37491044471864 Y59.49441865145161 E4.69291
G1 X46.77356765790562 Y58.573765622346734 E4.77645
G1 X48.02161112669989 Y57.696246106894236 E4.85257
G1 X49.12186927822615 Y56.85478903728224 E4.92167
G1 X50.442037638701436 Y55.780693836659864 E5.00658
G1 X51.500576490137696 Y54.85226263296193 E5.07683
G1 X52.75286259961908 Y53.682000910098196 E5.16234
G1 X53.72018467628227 Y52.71326461987263 E5.23064
G1 X54.87135451605397 Y51.48007039348329 E5.3148
G1 X55.800492826533095 Y50.419410221703465 E5.38515
G1 X56.8724667068119 Y49.099948968009365 E5.46996
G1 X57.70473138826846 Y48.00746899107615 E5.53848
G1 X58.59992857325064 Y46.73467678494036 E5.61612
G1 X59.494418651451625 Y45.36925359046915 E5.69755
G1 X60.358503138061586 Y43.9522116009713 E5.78036
G1 X61.08611601590253 Y42.658913298181105 E5.85439
G1 X61.76776695296637 Y41.339452044487004 E5.92848
G1 X62.482651908745964 Y39.83543592090322 E6.01156
G1 X63.05328708116351 Y38.51385334686557 E6.08338
G1 X63.705946640198704 Y36.85427373142074 E6.17235
G1 X64.01636651713959 Y36.118175572205544 E6.21221
G1 X64.62801388286594 Y34.939428567967575 E6.27846
G1 X65.35845518783165 Y33.75926735016722 E6.3477
G1 X65.85060150753749 Y33.091758548727114 E6.38908
G1 X66.87378501991444 Y31.92149682586338 E6.46663
G1 X67.68200807081065 Y31.135901191965132 E6.52286
G1 X68.3629519010933 Y30.56385180598521 E6.56723
G1 X69.46533137296313 Y29.775427744962208 E6.63485
G1 X70.59740932964279 Y29.101554982491436 E6.70058
G1 X71.52371921299716 Y28.64476400184492 E6.75211
G1 X72.61761340349275 Y28.2042364771657 E6.81094
G1 X73.73130658386157 Y27.85280440691599 E6.8692
G1 X74.73115557245936 Y27.61804495556205 E6.92044
G1 X76.16587523148685 Y27.402377387300152 E6.99282
G1 X76.96349168066527 Y27.342980417680486 E7.03273
G1 X78.49013522124704 Y27.346515951586415 E7.10889
G1 X79.48291314203294 Y27.432782978891176 E7.15861
G1 X80.71893579554703 Y27.633601304748158 E7.22108
G1 X81.80717313179312 Y27.903008988380236 E7.27701
G1 X82.92510895284906 Y28.274240048503174 E7.33578
G1 X84.14981789786415 Y28.78901378520698 E7.40206
G1 X84.87530945536155 Y29.159537738548728 E7.4427
G1 X86.1975991361804 Y29.97836739116275 E7.5203
G1 X86.98390187685985 Y30.558194951735718 E7.56904
G1 X88.03536966048424 Y31.47814087405942 E7.63874
G1 X88.8372287503498 Y32.29979895379819 E7.69602
G1 X89.35483091417834 Y32.90649657205625 E7.73581
G1 X90.25356363306643 Y34.14322633235152 E7.81208
G1 X90.70752618658821 Y34.89134530684688 E7.85574
G1 X91.38493448296491 Y36.237676618226075 E7.93093
G1 X91.8063701245521 Y37.28843729506928 E7.98741
G1 X92.10476918621282 Y38.217575605548404 E8.0361
G1 X92.4109464224666 Y39.512288121900966 E8.10247
G1 X92.58135915673256 Y40.64295186501826 E8.15952
G1 X92.6725759315056 Y41.907965896560995 E8.22279
G1 X92.6732830382868 Y42.70770366608298 E8.26269
G1 X92.55236777870391 Y44.25838883722508 E8.34029
G1 X92.42226013096558 Y45.078632703401475 E8.38173
G1 X92.0694138471535 Y46.55012191505068 E8.45722
G1 X91.80566301777091 Y47.36258760663402 E8.49984
G1 X91.25199840810184 Y48.699726529857784 E8.57204
G1 X90.69055562383971 Y49.787256759322695 E8.6331
G1 X90.28255501109508 Y50.45830109466873 E8.67228
G1 X89.372508583708 Y51.717658271961966 E8.7498
G1 X88.85561352666063 Y52.32789142412595 E8.7897
G1 X87.77020461753928 Y53.41754297393443 E8.86643
G1 X87.1543146111258 Y53.948580166605524 E8.907
G1 X85.88364372533357 Y54.878425583865834 E8.98555
G1 X85.12633236268279 Y55.34158052554302 E9.02984
G1 X83.98152648394176 Y55.93342890139617 E9.09414
G1 X83.023396795434 Y56.33860108701606 E9.14604
G1 X81.50453142944528 Y56.93681342389988 E9.22748
G1 X80.15254326381661 Y57.52229783872234 E9.30098
G1 X78.63226368426552 Y58.24496096909499 E9.38496
G1 X77.35240041031788 Y58.905398702723225 E9.45682
G1 X76.00253356503275 Y59.66695270606114 E9.53414
G1 X74.62508955528136 Y60.505581348548375 E9.6146
G1 X73.22713944887555 Y61.42552727087208 E9.69809
G1 X71.97838887330012 Y62.30375389310577 E9.77425
G1 X70.87813072177386 Y63.14521096271776 E9.84336
G1 F2400 E2.84336
G0 F5100 X71.7485791694145 Y61.9763634534164
G1 F2400 E9.84336
G1 F1800 X70.62569360089026 Y62.834791085776864 E9.91387
G1 X69.30552524041497 Y63.90888628639924 E9.99878
G1 X68.2264802923243 Y64.85499515962684 E10.07038
G1 X66.97419418284292 Y66.02525688249058 E10.15589
G1 X65.9870731163065 Y67.01379216258937 E10.22559
G1 X64.8359032765348 Y68.2469863889787 E10.30975
G1 X63.88908729652601 Y69.32815265741294 E10.38145
G1 X62.8171134162472 Y70.64761391110704 E10.46626
G1 X61.96292842457385 Y71.76767105250653 E10.53654
G1 X61.06207438534219 Y73.04894854001655 E10.61468
G1 X60.19798989873223 Y74.36416715302352 E10.69319
G1 X59.30067139340651 Y75.83707057823511 E10.77924
G1 X58.554673739254696 Y77.1614815793975 E10.85507
G1 X57.875851229315614 Y78.4767001924045 E10.92892
G1 X57.14965256503703 Y80.00617216011099 E11.01339
G1 X56.57760317905711 Y81.3305831612734 E11.08536
G1 X55.92494362002192 Y82.99016277671822 E11.17433
G1 X55.61452374308103 Y83.72626093593342 E11.21419
G1 X55.017018512978396 Y84.87672366892393 E11.27886
G1 X54.31910411994727 Y86.0031447713541 E11.34497
G1 X53.82695780024144 Y86.67065357279421 E11.38635
G1 X52.84761490829807 Y87.79141782097487 E11.4606
G1 X52.039391857401846 Y88.57701345487314 E11.51683
G1 X51.40370286111514 Y89.11087907466899 E11.55825
G1 X50.357184824959056 Y89.86324068985147 E11.62255
G1 X49.37077086520381 Y90.45791749282935 E11.68002
G1 X48.20687310337076 Y91.0391592669647 E11.74492
G1 X47.453097274625904 Y91.34604360999965 E11.78552
G1 X46.05726848856365 Y91.79010666858481 E11.8586
G1 X45.23985304951201 Y91.98102549950518 E11.90048
G1 X43.803012070140944 Y92.19881438811063 E11.97298
G1 X42.97569713615268 Y92.25962557129267 E12.01437
G1 X41.5501698652806 Y92.25679714416792 E12.08549
G1 X40.73841128047844 Y92.1903291067364 E12.12612
G1 X39.25065861286194 Y91.94991280113297 E12.20131
G1 X38.34980457363028 Y91.72646705827802 E12.24762
G1 X37.17459310329824 Y91.33614411506305 E12.3094
G1 X36.05807149580468 Y90.865918105574 E12.36984
G1 X35.204593610912525 Y90.42539058089477 E12.41776
G1 X34.29808271743137 Y89.87384729156926 E12.4707
G1 X33.12357835388052 Y89.01046991174049 E12.54342
G1 X32.251008585896315 Y88.2425519473719 E12.60141
G1 X31.467534272341624 Y87.44069285750635 E12.65734
G1 X30.949932108513067 Y86.8339952392483 E12.69713
G1 X30.08867604902785 Y85.64888427397965 E12.77022
G1 X29.634713495506087 Y84.90076529948428 E12.81388
G1 X28.986296577158022 Y83.61312385094357 E12.8858
G1 X28.57476043050745 Y82.58923323178546 E12.94086
G1 X28.276361368846732 Y81.66009492130632 E12.98954
G1 X27.985033374997876 Y80.42831490847935 E13.05269
G1 X27.814620640731917 Y79.29765116536207 E13.10974
G1 X27.727646506645968 Y78.09203410343902 E13.17004
G1 X27.726939399864786 Y77.29229633391702 E13.20994
G1 X27.842904911979378 Y75.80454366630052 E13.28439
G1 X27.9730125597177 Y74.98429980012413 E13.32583
G1 X28.311009601124866 Y73.5729146648758 E13.39823
G1 X28.564153828789657 Y72.79085456488345 E13.43924
G1 X29.117818438458723 Y71.4537156416597 E13.51144
G1 X29.651684058254567 Y70.42063263434615 E13.56946
G1 X30.0596846709992 Y69.74958829900012 E13.60864
G1 X30.932961545764588 Y68.5411428099523 E13.68303
G1 X31.44985660281195 Y67.93090965778832 E13.72292
G1 X32.490717784718555 Y66.88580583519459 E13.79651
G1 X33.106607791132035 Y66.35476864252351 E13.83708
G1 X34.32495277511646 Y65.46310699144726 E13.91241
G1 X35.08226413776725 Y64.99995204977009 E13.95669
G1 X36.19737153169843 Y64.42507423666542 E14.01929
G1 X37.15125857951909 Y64.02131626460789 E14.07096
G1 X38.67012394550779 Y63.42310392772408 E14.1524
G1 X40.019283684011725 Y62.83903372646398 E14.22575
G1 X41.54451301103111 Y62.11424927574777 E14.31
G1 X42.82861892566588 Y61.4509831149948 E14.38211
G1 X44.20606293541727 Y60.67457986925196 E14.46099
G1 X45.59128511976172 Y59.83100147929642 E14.54191
G1 X46.99347786685465 Y58.90822712984797 E14.62565
G1 X48.251420830585516 Y58.0236365465836 E14.70237
G1 X49.37430639910975 Y57.165208914223136 E14.77289
G1 X50.694474759585034 Y56.09111371360076 E14.8578
G1 X51.7735197076757 Y55.14500484037316 E14.9294
G1 X53.025805817157085 Y53.974743117509426 E15.01491
G1 X54.0129268836935 Y52.98620783741064 E15.0846
G1 X55.1640967234652 Y51.753013611021295 E15.16877
G1 X56.11091270347399 Y50.671847342587064 E15.24047
G1 X57.1828865837528 Y49.35238608889296 E15.32528
G1 X58.03282893473903 Y48.236571588180595 E15.39526
G1 X58.93509718753307 Y46.9538798871082 E15.4735
G1 X59.82958726573405 Y45.588456692636974 E15.55494
G1 X60.70003571337468 Y44.16080810142133 E15.63836
G1 X61.44108362005819 Y42.844175274851985 E15.71374
G1 X62.12697719780913 Y41.51622873978365 E15.7883
G1 X62.85034743496297 Y39.99382783988901 E15.87239
G1 X63.42239682094289 Y38.669416838726605 E15.94437
G1 X64.07505637997807 Y37.00983722328178 E16.03334
G1 X64.38547625691896 Y36.27373906406658 E16.07319
G1 X64.9829814870216 Y35.12327633107607 E16.13787
G1 X65.68089588005273 Y33.9968552286459 E16.20398
G1 X66.17304219975856 Y33.3293464272058 E16.24536
G1 X67.15238509170193 Y32.20858217902513 E16.31961
G1 X67.96060814259815 Y31.422986545126868 E16.37584
G1 X68.59629713888486 Y30.88912092533102 E16.41726
G1 X69.67039233950723 Y30.11908164061887 E16.48319
G1 X70.77418602493943 Y29.460765227334193 E16.54731
G1 X71.7004959082938 Y29.00397424668769 E16.59884
G1 X72.73782155629446 Y28.586074139006442 E16.65463
G1 X73.85151473666329 Y28.23464206875672 E16.7129
G1 X74.79125964886019 Y28.013317646245333 E16.76106
G1 X76.19557371629668 Y27.801185611889373 E16.83192
G1 X76.99319016547511 Y27.741788642269704 E16.87182
G1 X78.45548698896889 Y27.74461706939445 E16.94478
G1 X79.41856642494497 Y27.82805566957446 E16.99301
G1 X80.65458907845905 Y28.02887399543144 E17.05548
G1 X81.68060101796074 Y28.282725329877405 E17.10821
G1 X82.79853683901668 Y28.653956390000342 E17.16698
G1 X83.96738434831803 Y29.145395602924992 E17.23024
G1 X84.69287590581543 Y29.515919556266752 E17.27088
G1 X85.96001125770172 Y30.30080808338382 E17.34524
G1 X86.74631399838115 Y30.880635643956786 E17.39398
G1 X87.74899141410368 Y31.757448052628106 E17.46044
G1 X88.53246572765838 Y32.55930714249365 E17.51637
G1 X89.05006789148693 Y33.166004760751704 E17.55615
G1 X89.91132395097215 Y34.35111572602036 E17.62924
G1 X90.36528650449392 Y35.09923470051573 E17.6729
G1 X91.01370342284199 Y36.38687614905643 E17.74483
G1 X91.42523956949255 Y37.41076676821455 E17.79988
G1 X91.72363863115328 Y38.339905078693675 E17.84857
G1 X92.01496662500212 Y39.57168509152064 E17.91172
G1 X92.18537935926808 Y40.70234883463793 E17.96876
G1 X92.27235349335403 Y41.907965896560995 E18.02907
G1 X92.27306060013521 Y42.707703666082985 E18.06897
G1 X92.15709508802063 Y44.19545633369948 E18.14342
G1 X92.0269874402823 Y45.015700199875866 E18.18485
G1 X91.68899039887513 Y46.42708533512422 E18.25726
G1 X91.43584617121034 Y47.20914543511654 E18.29827
G1 X90.88218156154127 Y48.5462843583403 E18.37047
G1 X90.34831594174544 Y49.579367365653845 E18.42849
G1 X89.94031532900081 Y50.25041170099988 E18.46767
G1 X89.06703845423542 Y51.458857190047695 E18.54205
G1 X88.55014339718805 Y52.06909034221168 E18.58195
G1 X87.50928221528144 Y53.1141941648054 E18.65554
G1 X86.89339220886797 Y53.64523135747649 E18.69611
G1 X85.67504722488354 Y54.53689300855274 E18.77143
G1 X84.91773586223275 Y55.00004795022992 E18.81572
G1 X83.82525588529954 Y55.56502626839797 E18.87708
G1 X82.87702569172838 Y55.965955813330744 E18.92844
G1 X81.35816032573966 Y56.56416815021456 E19.00989
G1 X79.98071631598827 Y57.16096627353602 E19.08478
G1 X78.45548698896889 Y57.885750724252226 E19.16903
G1 X77.16925975399056 Y58.54972399178639 E19.24124
G1 X75.79393706458272 Y59.325420130748036 E19.32002
G1 X74.40871488023828 Y60.16899852070358 E19.40094
G1 X73.00722923992655 Y61.09106576337084 E19.48463
G1 X71.7485791694145 Y61.9763634534164 E19.5614
G0 F5100 X71.51876946552885 Y61.64897301372703
G1 F1800 X70.37325648000665 Y62.52437120883598 E19.63333
G1 X69.05308811953137 Y63.59846640945834 E19.71824
G1 X67.95353707478628 Y64.5622529522156 E19.79119
G1 X66.70125096530491 Y65.73251467507934 E19.8767
G1 X65.69433090889527 Y66.74084894505135 E19.94779
G1 X64.54316106912357 Y67.9740431714407 E20.03196
G1 X63.578667419585116 Y69.07571553652934 E20.10501
G1 X62.50669353930631 Y70.39517679022343 E20.18982
G1 X61.635537984884486 Y71.5378613486209 E20.26151
G1 X60.72761287784096 Y72.82903833106752 E20.34026
G1 X59.855750216637944 Y74.15627775935468 E20.41948
G1 X58.9591388180934 Y75.62988829134744 E20.50554
G1 X58.19899902831786 Y76.97834092307019 E20.58277
G1 X57.51593387769166 Y78.3020448174514 E20.65708
G1 X56.7883209998507 Y79.83434521228267 E20.74171
G1 X56.2049579053718 Y81.18421205756778 E20.81507
G1 X55.555833880242545 Y82.83459928485718 E20.90355
G1 X55.245414003301654 Y83.57069744407238 E20.94341
G1 X54.67690015122767 Y84.66671295491153 E21.00501
G1 X53.99666342772621 Y85.76555689287542 E21.06948
G1 X53.50451710802038 Y86.43306569431552 E21.11086
G1 X52.56830772972939 Y87.50503957459432 E21.18186
G1 X51.78129788226876 Y88.27083621861935 E21.23665
G1 X51.17035762332358 Y88.78560995532317 E21.2765
G1 X50.12383958716749 Y89.53797157050565 E21.34081
G1 X49.16500279187853 Y90.11497070395387 E21.39664
G1 X48.05555225219684 Y90.66863531362294 E21.4585
G1 X47.301776423451976 Y90.97551965665791 E21.4991
G1 X45.96605171379059 Y91.40049083215102 E21.56903
G1 X45.148636274738934 Y91.59140966307139 E21.61091
G1 X43.77331358533111 Y91.80000616352142 E21.68031
G1 X42.94599865134284 Y91.86081734670347 E21.7217
G1 X41.58269677721518 Y91.85798891957872 E21.78971
G1 X40.77093819241303 Y91.79152088214717 E21.83035
G1 X39.34611802832213 Y91.56171117826155 E21.90235
G1 X38.47637668746268 Y91.34675071678083 E21.94705
G1 X37.301165217130645 Y90.95642777356586 E22.00883
G1 X36.241212152132 Y90.51024339463716 E22.0662
G1 X35.41248300458136 Y90.08315089880048 E22.11272
G1 X34.50597211110021 Y89.53160760947497 E22.16566
G1 X33.38732918326309 Y88.7099495297362 E22.2349
G1 X32.53667972549568 Y87.96253766202202 E22.2914
G1 X31.77229729503302 Y87.18118466881089 E22.34593
G1 X31.254695131204468 Y86.57448705055282 E22.38572
G1 X30.430915731122134 Y85.4409948803108 E22.45562
G1 X29.97695317760038 Y84.69287590581543 E22.49928
G1 X29.357527637280963 Y83.46392432011321 E22.56794
G1 X28.955890985567002 Y82.46690375864017 E22.62157
G1 X28.657491923906278 Y81.53776544816105 E22.67025
G1 X28.38101317246234 Y80.36891793885968 E22.73018
G1 X28.21060043819638 Y79.23825419574241 E22.78722
G1 X28.127868944797555 Y78.092034103439 E22.84456
G1 X28.12716183801637 Y77.29229633391702 E22.88446
G1 X28.238177602662653 Y75.86747616982612 E22.95576
G1 X28.36828525040098 Y75.04723230364974 E22.99719
G1 X28.692140156184422 Y73.69524413802105 E23.06655
G1 X28.93397067535022 Y72.94429673640093 E23.10591
G1 X29.487635285019287 Y71.60715781317718 E23.17811
G1 X29.993923740348855 Y70.628522028015 E23.23308
G1 X30.40192435309349 Y69.95747769266896 E23.27226
G1 X31.238431675237177 Y68.79994389186659 E23.34352
G1 X31.755326732284537 Y68.1897107397026 E23.38341
G1 X32.75164018697639 Y67.18915464432364 E23.45386
G1 X33.36753019338987 Y66.65811745165253 E23.49443
G1 X34.53354927556649 Y65.80463956676036 E23.56652
G1 X35.29086063821728 Y65.34148462508318 E23.61081
G1 X36.35364213034066 Y64.7934768696636 E23.67047
G1 X37.297629683224706 Y64.39396153829321 E23.72161
G1 X38.81649504921341 Y63.795749201409386 E23.80305
G1 X40.19111063184006 Y63.20036529165032 E23.87778
G1 X41.721289706327745 Y62.473459520590545 E23.9623
G1 X43.01388090233675 Y61.805950719150445 E24.03488
G1 X44.41395232908612 Y61.01681955134625 E24.11506
G1 X45.80200294055531 Y60.171826947828336 E24.19613
G1 X47.213388075803664 Y59.242688637349204 E24.28044
G1 X48.48123053447114 Y58.35102698627296 E24.35777
G1 X49.62674351999335 Y57.47562879116402 E24.42969
G1 X50.94691188046863 Y56.40153359054166 E24.5146
G1 X52.04646292521372 Y55.4377470477844 E24.58755
G1 X53.29874903469509 Y54.267485324920656 E24.67306
G1 X54.30566909110473 Y53.259151054948646 E24.74415
G1 X55.45683893087643 Y52.0259568285593 E24.82832
G1 X56.421332580414884 Y50.924284463470656 E24.90137
G1 X57.49330646069369 Y49.60482320977657 E24.98618
G1 X58.360926481209574 Y48.46567418528503 E25.05762
G1 X59.270265801815476 Y47.173082989276026 E25.13647
G1 X60.16475588001646 Y45.8076597948048 E25.21791
G1 X61.041568288687785 Y44.369404601871366 E25.30194
G1 X61.796051224213834 Y43.02943725152286 E25.37866
G1 X62.4861874426519 Y41.69300543508029 E25.4537
G1 X63.2116790001493 Y40.165654787717344 E25.53806
G1 X63.7950420946282 Y38.81578794243222 E25.61143
G1 X64.44416611975745 Y37.16540071514282 E25.69991
G1 X64.75458599669835 Y36.42930255592763 E25.73976
G1 X65.32309984877233 Y35.33328704508847 E25.80136
G1 X66.00333657227378 Y34.234443107124584 E25.86584
G1 X66.49548289197962 Y33.566934305684484 E25.90721
G1 X67.43169227027062 Y32.49496042540567 E25.97822
G1 X68.21870211773124 Y31.729163781380645 E26.033
G1 X68.82964237667642 Y31.214390044676833 E26.07286
G1 X69.87545330605133 Y30.462735536275538 E26.13711
G1 X70.95096272023608 Y29.819975472176964 E26.19962
G1 X71.87727260359044 Y29.363184491530447 E26.25115
G1 X72.85802970909619 Y28.96791180084717 E26.30391
G1 X73.97172288946498 Y28.616479730597465 E26.36217
G1 X74.85136372526107 Y28.40859033692861 E26.40726
G1 X76.22527220110652 Y28.199993836478576 E26.47659
G1 X77.02288865028495 Y28.14059686685891 E26.5165
G1 X78.42083875669076 Y28.142718187202473 E26.58624
G1 X79.354219707857 Y28.223328360257735 E26.63298
G1 X80.59024236137108 Y28.42414668611472 E26.69545
G1 X81.55402890412834 Y28.662441671374587 E26.74499
G1 X82.67196472518427 Y29.033672731497525 E26.80375
G1 X83.7849507987719 Y29.50177742064302 E26.86399
G1 X84.51044235626931 Y29.87230137398477 E26.90464
G1 X85.72242337922305 Y30.62324877560488 E26.97577
G1 X86.50872611990248 Y31.20307633617785 E27.02451
G1 X87.46332027450433 Y32.03746233797798 E27.08776
G1 X88.22770270496699 Y32.81881533118911 E27.1423
G1 X88.74530486879553 Y33.42551294944717 E27.18208
G1 X89.56908426887787 Y34.559005119689196 E27.25199
G1 X90.02304682239962 Y35.30712409418457 E27.29565
G1 X90.64247236271903 Y36.53607567988679 E27.36431
G1 X91.04410901443299 Y37.53309624135982 E27.41793
G1 X91.34250807609374 Y38.46223455183895 E27.46662
G1 X91.61898682753767 Y39.63108206114031 E27.52654
G1 X91.78939956180362 Y40.7617458042576 E27.58359
G1 X91.87213105520243 Y41.907965896560995 E27.64092
G1 X91.87283816198362 Y42.707703666082985 E27.68082
G1 X91.76182239733734 Y44.132523830173874 E27.75212
G1 X91.63171474959901 Y44.95276769635027 E27.79356
G1 X91.30785984381558 Y46.30475586197895 E27.86292
G1 X91.06602932464978 Y47.05570326359906 E27.90228
G1 X90.5123647149807 Y48.392842186822826 E27.97448
G1 X90.00607625965114 Y49.37147797198501 E28.02945
G1 X89.5980756469065 Y50.04252230733104 E28.06863
G1 X88.76156832476282 Y51.20005610813341 E28.13988
G1 X88.24467326771546 Y51.8102892602974 E28.17978
G1 X87.24835981302361 Y52.81084535567636 E28.25023
G1 X86.63246980661013 Y53.34188254834747 E28.2908
G1 X85.46645072443351 Y54.195360433239635 E28.36289
G1 X84.70913936178272 Y54.65851537491682 E28.40718
G1 X83.64211522897222 Y55.20935155746114 E28.46709
G1 X82.73065458802276 Y55.593310539645444 E28.51643
G1 X81.21178922203406 Y56.19152287652925 E28.59787
G1 X79.80888936815995 Y56.799634708349686 E28.67415
G1 X78.27871029367226 Y57.526540479409455 E28.75867
G1 X76.98611909766325 Y58.194049280849555 E28.83125
G1 X75.58604767091387 Y58.98318044865375 E28.91143
G1 X74.19799705944469 Y59.828173052171664 E28.9925
G1 X72.78731903097753 Y60.756604255869604 E29.07676
G1 X71.51876946552885 Y61.64897301372703 E29.15414
G0 F5100 X71.28895976164323 Y61.321582574037656
G1 F1800 X70.12081935912306 Y62.21395133189508 E29.22747
G1 X68.80065099864777 Y63.28804653251744 E29.31238
G1 X67.68059385724828 Y64.26951074480438 E29.38668
G1 X66.4283077477669 Y65.4397724676681 E29.47219
G1 X65.40158870148404 Y66.46790572751335 E29.54468
G1 X64.25041886171233 Y67.70109995390268 E29.62885
G1 X63.269661756206595 Y68.82186420208336 E29.70315
G1 X62.19627366236542 Y70.14273966933983 E29.78806
G1 X61.30814754519511 Y71.30805164473526 E29.86116
G1 X60.39315137033972 Y72.6091281221185 E29.94052
G1 X59.514924748106026 Y73.94555993856109 E30.0203
G1 X58.61689913599911 Y75.4219988976786 E30.10651
G1 X57.84332431738103 Y76.79520026674288 E30.18515
G1 X57.15672363284889 Y78.12526812215478 E30.25982
G1 X56.42698943466438 Y79.66251826445433 E30.34472
G1 X55.83231263168649 Y81.03784095386216 E30.41947
G1 X55.18672414046317 Y82.67903579299615 E30.50746
G1 X54.87630426352227 Y83.41513395221133 E30.54732
G1 X54.321932547072024 Y84.48286519180301 E30.60734
G1 X53.67422273550515 Y85.52796901439675 E30.66868
G1 X53.18207641579931 Y86.19547781583684 E30.71005
G1 X52.2890005511607 Y87.21866132821377 E30.77781
G1 X51.52320390713567 Y87.96465898236559 E30.83115
G1 X50.912263648190496 Y88.47943271906938 E30.87101
G1 X49.91807151384221 Y89.19502478163018 E30.93212
G1 X48.95923471855324 Y89.7720239150784 E30.98795
G1 X47.90423140102292 Y90.29811136028118 E31.04676
G1 X47.150455572278055 Y90.60499570331615 E31.08737
G1 X45.87483493901753 Y91.01087499571723 E31.15415
G1 X45.05741949996588 Y91.2017938266376 E31.19603
G1 X43.743615100521275 Y91.4011979389322 E31.26233
G1 X42.91630016653301 Y91.46200912211424 E31.30371
G1 X41.61522368914976 Y91.4591806949895 E31.36862
G1 X40.80346510434761 Y91.39271265755796 E31.40926
G1 X39.441577443782315 Y91.17350955539014 E31.47808
G1 X38.602948801295064 Y90.96703437528367 E31.52117
G1 X37.427737330963026 Y90.57671143206869 E31.58295
G1 X36.42435280845931 Y90.15456868370033 E31.63726
G1 X35.62037239825022 Y89.74091121670618 E31.68237
G1 X34.713861504769056 Y89.18936792738069 E31.7353
G1 X33.651080012645686 Y88.40942914773191 E31.80107
G1 X32.822350865095046 Y87.68252337667215 E31.85607
G1 X32.07706031772443 Y86.92167648011542 E31.90921
G1 X31.55945815389587 Y86.31497886185737 E31.94899
G1 X30.773155413216433 Y85.23310548664195 E32.01572
G1 X30.319192859694663 Y84.48498651214659 E32.05938
G1 X29.728051590622712 Y83.31401768250167 E32.12482
G1 X29.336314433845367 Y82.34386717871371 E32.17702
G1 X29.046400653558877 Y81.4458415666068 E32.22409
G1 X28.776992969926805 Y80.30952096924003 E32.28236
G1 X28.606580235660843 Y79.17885722612273 E32.3394
G1 X28.528091382949142 Y78.092034103439 E32.39377
G1 X28.527384276167957 Y77.29229633391702 E32.43367
G1 X28.63345029334593 Y75.93040867335174 E32.50182
G1 X28.763557941084265 Y75.11016480717532 E32.54325
G1 X29.073270711243968 Y73.81757361116632 E32.60956
G1 X29.315101230409766 Y73.0666262095462 E32.64892
G1 X29.842602889174927 Y71.79100557628568 E32.71779
G1 X30.336163422443143 Y70.83641142168383 E32.7714
G1 X30.74416403518778 Y70.16536708633781 E32.81059
G1 X31.543901804709762 Y69.05874497378086 E32.8787
G1 X32.06079686175713 Y68.44851182161688 E32.9186
G1 X33.01256258923422 Y67.49250345345266 E32.9859
G1 X33.62845259564771 Y66.96146626078156 E33.02648
G1 X34.74214577601652 Y66.14617214207347 E33.09534
G1 X35.49945713866731 Y65.68301720039628 E33.13962
G1 X36.50991272898289 Y65.1618795026618 E33.19634
G1 X37.44400078693032 Y64.76660681197852 E33.24695
G1 X38.96286615291903 Y64.16839447509469 E33.32839
G1 X40.36293757966839 Y63.56169685683664 E33.40452
G1 X41.893116654156074 Y62.834791085776864 E33.48903
G1 X43.20974948072543 Y62.15455436227542 E33.56297
G1 X44.62254882953615 Y61.358352126659355 E33.64388
G1 X46.018377615598396 Y60.50840977567314 E33.72541
G1 X47.433298284752674 Y59.577150144850435 E33.80992
G1 X48.711040238356766 Y58.67841742596234 E33.88785
G1 X49.879180640876946 Y57.78604866810492 E33.96119
G1 X51.19934900135223 Y56.71195346748256 E34.0461
G1 X52.319406142751724 Y55.73048925519563 E34.1204
G1 X53.5716922522331 Y54.560227532331886 E34.20591
G1 X54.59841129851596 Y53.53209427248665 E34.2784
G1 X55.74958113828766 Y52.29890004609731 E34.36256
G1 X56.730338243793405 Y51.17813579791663 E34.43687
G1 X57.80372633763458 Y49.85726033066016 E34.52178
G1 X58.68902402768014 Y48.694776782389475 E34.59468
G1 X59.6054344160979 Y47.39228609144386 E34.67413
G1 X60.49992449429889 Y46.02686289697264 E34.75557
G1 X61.38310086400089 Y44.5780011023214 E34.84022
G1 X62.15101882836948 Y43.21469922819373 E34.91829
G1 X62.84539768749467 Y41.86978213037692 E34.9938
G1 X63.57301056533562 Y40.337481735545666 E35.07843
G1 X64.16768736831351 Y38.96215904613784 E35.15318
G1 X64.81327585953683 Y37.320964207003854 E35.24117
G1 X65.12369573647771 Y36.584866047788665 E35.28103
G1 X65.67806745292798 Y35.51713480819697 E35.34105
G1 X66.32577726449486 Y34.47203098560326 E35.40239
G1 X66.8179235842007 Y33.804522184163154 E35.44377
G1 X67.7109994488393 Y32.78133867178623 E35.51152
G1 X68.47679609286433 Y32.03534101763441 E35.56486
G1 X69.08773635180951 Y31.520567280930614 E35.60472
G1 X70.0812213793766 Y30.805682325151015 E35.66578
G1 X71.1277394155327 Y30.17918571701973 E35.72663
G1 X72.05404929888707 Y29.722394736373225 E35.77816
G1 X72.97823786189788 Y29.34974946268791 E35.82787
G1 X74.09193104226671 Y28.998317392438196 E35.88614
G1 X74.94258050003411 Y28.79820617336241 E35.92973
G1 X76.25497068591636 Y28.598802061067794 E35.99596
G1 X77.05258713509478 Y28.539405091448128 E36.03587
G1 X78.3868976311938 Y28.54152641179168 E36.10243
G1 X79.28987299076901 Y28.618601050941024 E36.14765
G1 X80.5258956442831 Y28.819419376798 E36.21012
G1 X81.42745679029595 Y29.04215801287176 E36.25645
G1 X82.54539261135189 Y29.4133890729947 E36.31522
G1 X83.60251724922577 Y29.858159238361033 E36.37244
G1 X84.32800880672316 Y30.22868319170279 E36.41308
G1 X85.48483550074435 Y30.94568946782595 E36.48098
G1 X86.2711382414238 Y31.525517028398912 E36.52972
G1 X87.17764913490495 Y32.31747662332785 E36.58978
G1 X87.92293968227557 Y33.07832351988458 E36.64291
G1 X88.44054184610413 Y33.68502113814263 E36.6827
G1 X89.22684458678357 Y34.766894513358054 E36.74943
G1 X89.68080714030533 Y35.515013487853416 E36.79308
G1 X90.27194840937729 Y36.68598231749834 E36.85853
G1 X90.66368556615464 Y37.656132821286285 E36.91072
G1 X90.95359934644112 Y38.5541584333932 E36.9578
G1 X91.2230070300732 Y39.69047903075998 E37.01607
G1 X91.39341976433916 Y40.82114277387727 E37.07311
G1 X91.47190861705087 Y41.907965896560995 E37.12748
G1 X91.47261572383204 Y42.707703666082985 E37.16737
G1 X91.36654970665407 Y44.069591326648265 E37.23553
G1 X91.23644205891574 Y44.88983519282467 E37.27696
G1 X90.92672928875604 Y46.182426388833676 E37.34327
G1 X90.68489876959023 Y46.933373790453786 E37.38263
G1 X90.15739711082507 Y48.208994423714316 E37.4515
G1 X89.66383657755685 Y49.16358857831616 E37.50511
G1 X89.25583596481222 Y49.83463291366219 E37.54429
G1 X88.45609819529024 Y50.94125502621914 E37.61241
G1 X87.93920313824287 Y51.55148817838313 E37.65231
G1 X86.98743741076578 Y52.507496546547344 E37.71961
G1 X86.37154740435228 Y53.038533739218444 E37.76018
G1 X85.25785422398347 Y53.853827857926525 E37.82904
G1 X84.50054286133269 Y54.31698279960372 E37.87333
G1 X83.48655173711118 Y54.840241817681765 E37.93026
G1 X82.58428348431715 Y55.22066526596012 E37.97911
G1 X81.06541811832844 Y55.81887760284394 E38.06055
G1 X79.63706242033162 Y56.43830314316336 E38.13823
G1 X78.10688334584391 Y57.16520891422313 E38.22274
G1 X76.79025051927458 Y57.84544563772459 E38.29668
G1 X75.37745117046384 Y58.64164787334064 E38.37759
G1 X73.98162238440162 Y59.49159022432687 E38.45912
G1 X72.56740882202851 Y60.42214274836837 E38.54358
G1 X71.28895976164323 Y61.321582574037656 E38.62156
G0 F5100 X71.0591500577576 Y60.99419213434828
G1 F1800 X69.86838223823946 Y61.903531454954184 E38.69631
G1 X68.54821387776417 Y62.97762665557655 E38.78122
G1 X67.40765063971027 Y63.97676853739314 E38.85687
G1 X66.1553645302289 Y65.14703026025688 E38.94238
G1 X65.10884649407281 Y66.19496250997534 E39.01627
G1 X63.95767665430111 Y67.42815673636468 E39.10043
G1 X62.960656092828074 Y68.56801286763739 E39.17599
G1 X61.88585378542452 Y69.89030254845625 E39.261
G1 X60.980757105505745 Y71.07824194084964 E39.33551
G1 X60.058689862838484 Y72.3892179131695 E39.41547
G1 X59.17268506601174 Y73.73767054489225 E39.49597
G1 X58.27536656068601 Y75.21481661079095 E39.58219
G1 X57.4876496064442 Y76.61205961041557 E39.66222
G1 X56.79751338800613 Y77.94849142685813 E39.73726
G1 X56.065657869478045 Y79.490691316626 E39.82242
G1 X55.45966735800118 Y80.89146985015655 E39.89857
G1 X54.817614400683794 Y82.5234723011351 E39.98606
G1 X54.5071945237429 Y83.25957046035029 E40.02592
G1 X53.9818141853213 Y84.27285447779062 E40.08286
G1 X53.35178204328408 Y85.29038113591805 E40.14257
G1 X52.85963572357825 Y85.95788993735816 E40.18395
G1 X52.00969337259201 Y86.93228308183322 E40.24845
G1 X51.26510993200258 Y87.6584817461118 E40.30034
G1 X50.654169673057396 Y88.17325548281562 E40.3402
G1 X49.71230344051692 Y88.8520779927547 E40.39812
G1 X48.75346664522796 Y89.42907712620293 E40.45395
G1 X47.75291054984899 Y89.92758740693944 E40.50972
G1 X46.99913472110414 Y90.2344717499744 E40.55033
G1 X45.78361816424446 Y90.62125915928344 E40.61397
G1 X44.966202725192815 Y90.8121779902038 E40.65584
G1 X43.71391661571144 Y91.002389714343 E40.71904
G1 X42.88660168172317 Y91.06320089752504 E40.76042
G1 X41.64775060108435 Y91.0603724704003 E40.82223
G1 X40.835992016282184 Y90.99390443296876 E40.86287
G1 X39.537036859242505 Y90.78530793251872 E40.9285
G1 X38.729520915127466 Y90.58731803378649 E40.96998
G1 X37.55430944479542 Y90.1969950905715 E41.03176
G1 X36.60678635800545 Y89.7981868659823 E41.08305
G1 X35.828261791919054 Y89.3986715346119 E41.12671
G1 X34.92175089843791 Y88.8471282452864 E41.17965
G1 X33.91483084202826 Y88.10890876572763 E41.24194
G1 X33.10802200469441 Y87.40250909132227 E41.29544
G1 X32.38182334041583 Y86.66216829141996 E41.34717
G1 X31.864221176587268 Y86.0554706731619 E41.38696
G1 X31.11468798852953 Y85.02450898619192 E41.45055
G1 X30.67628178419387 Y84.30467428294402 E41.4926
G1 X30.098575543964465 Y83.1641110448901 E41.55639
G1 X29.716737882123724 Y82.22083059878726 E41.60716
G1 X29.43601648999267 Y81.35321057827136 E41.65265
G1 X29.172972767391276 Y80.25012399962036 E41.70923
G1 X29.002560033125317 Y79.11946025650306 E41.76628
G1 X28.928313821100723 Y78.092034103439 E41.81767
G1 X28.927606714319545 Y77.29229633391702 E41.85757
G1 X29.028722984029216 Y75.99334117687734 E41.92257
G1 X29.158830631767543 Y75.17309731070092 E41.964
G1 X29.454401266303513 Y73.9399030843116 E42.02727
G1 X29.69623178546932 Y73.18895568269149 E42.06663
G1 X30.19757049333058 Y71.97485333939419 E42.13216
G1 X30.67840310453743 Y71.04430081535268 E42.18442
G1 X31.086403717282074 Y70.37325648000665 E42.2236
G1 X31.84937193418235 Y69.31754605569515 E42.28858
G1 X32.36626699122972 Y68.70731290353115 E42.32848
G1 X33.27348499149206 Y67.79585226258169 E42.39264
G1 X33.88937499790554 Y67.2648150699106 E42.43321
G1 X34.950742276466556 Y66.48770471738658 E42.49884
G1 X35.708053639117345 Y66.02454977570939 E42.54313
G1 X36.66618332762512 Y65.53028213565999 E42.59692
G1 X37.590371890635936 Y65.13925208566383 E42.64698
G1 X39.10923725662464 Y64.54103974878001 E42.72842
G1 X40.53476452749672 Y63.92302842202296 E42.80594
G1 X42.0649436019844 Y63.1961226509632 E42.89046
G1 X43.405618059114104 Y62.50315800540038 E42.96575
G1 X44.83043822320499 Y61.70059180875364 E43.04733
G1 X46.22909543639199 Y60.84923524420504 E43.12902
G1 X47.6532084937017 Y59.91161165235169 E43.21409
G1 X48.940849942242394 Y59.00580786565171 E43.29263
G1 X50.131617761760545 Y58.096468545045816 E43.36738
G1 X51.45178612223582 Y57.02237334442345 E43.45229
G1 X52.59234936028973 Y56.02323146260686 E43.52794
G1 X53.844635469771106 Y54.852969739743116 E43.61345
G1 X54.89115350592719 Y53.80503749002466 E43.68734
G1 X56.04232334569889 Y52.571843263635316 E43.7715
G1 X57.039343907171926 Y51.43198713236261 E43.84706
G1 X58.11414621457548 Y50.10969745154376 E43.93207
G1 X59.01712157415069 Y48.92387937949392 E44.00643
G1 X59.94060303038033 Y47.61148919361169 E44.08649
G1 X60.83792153570606 Y46.241823358453345 E44.16818
G1 X61.72463343931399 Y44.78518338920905 E44.25326
G1 X62.50669353930631 Y43.39783988452105 E44.33271
G1 X63.20460793233743 Y42.04655882567356 E44.40859
G1 X63.93434213052195 Y40.509308683374 E44.49349
G1 X64.54033264199883 Y39.10853014984345 E44.56963
G1 X65.18238559931622 Y37.4765276988649 E44.65713
G1 X65.4928054762571 Y36.7404295396497 E44.69698
G1 X66.0181858146787 Y35.72714552220938 E44.75393
G1 X66.64821795671592 Y34.70961886408194 E44.81363
G1 X67.14036427642175 Y34.04211006264184 E44.85501
G1 X67.99030662740799 Y33.06771691816678 E44.91952
G1 X68.73489006799743 Y32.34151825388819 E44.97141
G1 X69.3458303269426 Y31.82674451718438 E45.01126
G1 X70.28698945270189 Y31.148629114026484 E45.06914
G1 X71.30451611082934 Y30.53839596186249 E45.12833
G1 X72.23082599418372 Y30.081604981215985 E45.17986
G1 X73.0991531214808 Y29.730880017747452 E45.22658
G1 X74.18314781703978 Y29.38793322887198 E45.2833
G1 X75.03379727480718 Y29.187822009796193 E45.3269
G1 X76.28466917072619 Y28.997610285657014 E45.39002
G1 X77.08228561990462 Y28.93821331603734 E45.42993
G1 X78.35295650569685 Y28.9403346363809 E45.49332
G1 X79.22552627368104 Y29.013873741624295 E45.53701
G1 X80.46154892719514 Y29.214692067481273 E45.59948
G1 X81.30088467646355 Y29.42187435436894 E45.64261
G1 X82.41882049751949 Y29.793105414491876 E45.70138
G1 X83.42008369967964 Y30.21454105607906 E45.75558
G1 X84.14557525717703 Y30.58506500942081 E45.79622
G1 X85.24724762226568 Y31.268130160047015 E45.86089
G1 X86.03355036294512 Y31.847957720619984 E45.90963
G1 X86.8919779953056 Y32.59749090867772 E45.96649
G1 X87.61817665958418 Y33.33783170858003 E46.01823
G1 X88.13577882341274 Y33.944529326838094 E46.05801
G1 X88.88531201147048 Y34.97549101380808 E46.12161
G1 X89.32371821580612 Y35.69532571705599 E46.16366
G1 X89.90142445603554 Y36.83588895510989 E46.22744
G1 X90.28326211787628 Y37.77916940121274 E46.27821
G1 X90.56398351000732 Y38.64678942172864 E46.32371
G1 X90.82702723260873 Y39.74987600037966 E46.38028
G1 X90.99743996687468 Y40.88053974349694 E46.43733
G1 X91.07168617889928 Y41.90796589656099 E46.48872
G1 X91.07239328568045 Y42.707703666082985 E46.52862
G1 X90.97127701597078 Y44.00665882312266 E46.59362
G1 X90.84116936823246 Y44.82690268929906 E46.63505
G1 X90.5455987336965 Y46.0600969156884 E46.69832
G1 X90.30376821453068 Y46.811044317308514 E46.73768
G1 X89.80242950666941 Y48.02514666060582 E46.80321
G1 X89.32159689546258 Y48.95569918464731 E46.85547
G1 X88.91359628271793 Y49.62674351999335 E46.89465
G1 X88.15062806581764 Y50.68245394430486 E46.95964
G1 X87.63373300877026 Y51.29268709646885 E46.99954
G1 X86.72651500850793 Y52.20414773741832 E47.06369
G1 X86.11062500209447 Y52.73518493008941 E47.10427
G1 X85.04925772353346 Y53.51229528261342 E47.16989
G1 X84.29194636088265 Y53.97545022429062 E47.21418
G1 X83.33098824525013 Y54.47113207790238 E47.26813
G1 X82.43791238061154 Y54.848019992274814 E47.31649
G1 X80.91904701462282 Y55.44623232915863 E47.39793
G1 X79.46523547250328 Y56.076971577977034 E47.47699
G1 X77.93505639801559 Y56.8038773490368 E47.56151
G1 X76.5943819408859 Y57.49684199459962 E47.6368
G1 X75.169561776795 Y58.29940819124636 E47.71839
G1 X73.77090456360801 Y59.15076475579495 E47.80008
G1 X72.3474986130795 Y60.08768124086713 E47.88509
G1 X71.0591500577576 Y60.99419213434828 E47.96369
G0 F5100 X70.82934035387197 Y60.666801694658915
G1 F1800 X69.61594511735586 Y61.59311157801329 E48.03985
G1 X68.29577675688057 Y62.66720677863566 E48.12476
G1 X67.13470742217227 Y63.68402632998191 E48.20176
G1 X65.88242131269088 Y64.85428805284565 E48.28727
G1 X64.81610428666158 Y65.92201929243734 E48.36255
G1 X63.66493444688987 Y67.15521351882667 E48.44672
G1 X62.65165042944955 Y68.31416153319142 E48.52352
G1 X61.575433908483625 Y69.63786542757265 E48.60863
G1 X60.65336666581637 Y70.84843223696402 E48.68455
G1 X59.724228355337246 Y72.16930770422049 E48.76512
G1 X58.83044538391745 Y73.52978115122339 E48.84633
G1 X57.93312687859172 Y75.00692721712211 E48.93256
G1 X57.139045963319234 Y76.41619103202689 E49.01326
G1 X56.4361818228198 Y77.7766644790298 E49.08966
G1 X55.70432630429172 Y79.31886436879768 E49.17482
G1 X55.08702208431586 Y80.74509874645094 E49.25236
G1 X54.44850466090441 Y82.36790880927406 E49.33936
G1 X54.13808478396352 Y83.10400696848926 E49.37922
G1 X53.626846581165644 Y84.08900671468211 E49.43458
G1 X53.02934135106301 Y85.05279325743938 E49.49116
G1 X52.53719503135717 Y85.72030205887948 E49.53253
G1 X51.730386194023325 Y86.64590483545267 E49.59379
G1 X51.007015956869495 Y87.35230450985803 E49.64423
G1 X50.39607569792431 Y87.86707824656185 E49.68409
G1 X49.50653536719163 Y88.50913120387922 E49.73882
G1 X48.54769857190267 Y89.08613033732745 E49.79465
G1 X47.60158969867507 Y89.55706345359769 E49.84738
G1 X46.847813869930214 Y89.86394779663264 E49.88798
G1 X45.69240138947139 Y90.23164332284966 E49.94848
G1 X44.87498595041975 Y90.42256215377002 E49.99035
G1 X43.6842181309016 Y90.6035814897538 E50.05044
G1 X42.88660168172317 Y90.66297845937345 E50.09035
G1 X41.68027751301893 Y90.66156424581108 E50.15053
G1 X40.868518928216766 Y90.59509620837953 E50.19117
G1 X39.6317891679215 Y90.39639920286612 E50.25366
G1 X38.856093028959855 Y90.20760169228932 E50.29349
G1 X37.68088155862781 Y89.81727874907433 E50.35527
G1 X36.78921990755157 Y89.44180504826429 E50.40354
G1 X36.036151185587904 Y89.0564318525176 E50.44574
G1 X35.12964029210675 Y88.50488856319211 E50.49868
G1 X34.17787456462966 Y87.80768127694216 E50.55754
G1 X33.39369314429378 Y87.12249480597241 E50.60949
G1 X32.686586363107224 Y86.40266010272451 E50.65984
G1 X32.168984199278675 Y85.79596248446644 E50.69962
G1 X31.45622056384263 Y84.81591248574188 E50.76008
G1 X31.017814359506982 Y84.09607778249398 E50.80213
G1 X30.469099497306214 Y83.01420440727856 E50.86265
G1 X30.09716133040208 Y82.09779401886081 E50.91199
G1 X29.82563232642646 Y81.26057958993592 E50.9559
G1 X29.562588603825052 Y80.15749301128491 E51.01248
G1 X29.401368257714527 Y79.08976177169322 E51.06635
G1 X29.32853625925231 Y78.092034103439 E51.11626
G1 X29.327829152471132 Y77.29229633391701 E51.15616
G1 X29.423995674712497 Y76.05627368040294 E51.21801
G1 X29.554103322450818 Y75.23602981422654 E51.25945
G1 X29.83553182136307 Y74.06223255745687 E51.31967
G1 X30.077362340528865 Y73.31128515583676 E51.35903
G1 X30.553245204267412 Y72.1579939957215 E51.42127
G1 X31.020642786631722 Y71.25219020902153 E51.47212
G1 X31.42864339937636 Y70.5811458736755 E51.5113
G1 X32.15484206365494 Y69.57634713760942 E51.57315
G1 X32.67173712070231 Y68.96611398544543 E51.61305
G1 X33.5344073937499 Y68.09920107171071 E51.67407
G1 X34.15029740016338 Y67.56816387903962 E51.71464
G1 X35.159338776916584 Y66.82923729269967 E51.77704
G1 X35.91665013956738 Y66.36608235102248 E51.82133
G1 X36.82245392626735 Y65.89868476865817 E51.87218
G1 X37.73674299434155 Y65.51189735934913 E51.92171
G1 X39.25560836033025 Y64.91368502246532 E52.00315
G1 X40.70659147532505 Y64.2843599872093 E52.08205
G1 X42.23677054981274 Y63.557454216149516 E52.16657
G1 X43.601486637502774 Y62.851761648525354 E52.24322
G1 X45.03903472365503 Y62.042124384066746 E52.32553
G1 X46.44547011143507 Y61.18581807204984 E52.40768
G1 X47.87311870265071 Y60.24607315985292 E52.49295
G1 X49.17065964612803 Y59.333198305341085 E52.5721
G1 X50.384054882644136 Y58.40688842198671 E52.64826
G1 X51.70422324311943 Y57.33279322136434 E52.73317
G1 X52.86529257782774 Y56.31597367001809 E52.81017
G1 X54.11757868730911 Y55.145711947154346 E52.89568
G1 X55.18389571333842 Y54.077980707562666 E52.97097
G1 X56.33506555311013 Y52.84478648117333 E53.05513
G1 X57.34834957055045 Y51.68583846680857 E53.13194
G1 X58.424566091516375 Y50.36213457242736 E53.21705
G1 X59.34521912062126 Y49.15298197659836 E53.29287
G1 X60.275771644662754 Y47.830692295779514 E53.37354
G1 X61.17591857711323 Y46.45678381993405 E53.45548
G1 X62.066873121408285 Y44.9930727828779 E53.54097
G1 X62.86166114346196 Y43.58310186119192 E53.62172
G1 X63.5638181771802 Y42.22333552097019 E53.69807
G1 X64.29567369570827 Y40.68113563120233 E53.78324
G1 X64.91297791568414 Y39.254901253549065 E53.86077
G1 X65.55149533909558 Y37.63209119072594 E53.94777
G1 X65.86191521603648 Y36.89599303151074 E53.98763
G1 X66.37315341883436 Y35.91099328531788 E54.043
G1 X66.97065864893698 Y34.947206742560624 E54.09957
G1 X67.46280496864283 Y34.27969794112052 E54.14095
G1 X68.26961380597668 Y33.35409516454733 E54.20221
G1 X68.9929840431305 Y32.64769549014197 E54.25265
G1 X69.60392430207568 Y32.13292175343816 E54.2925
G1 X70.49275752602718 Y31.49157590290196 E54.34719
G1 X71.48129280612596 Y30.897606206705266 E54.40472
G1 X72.40760268948036 Y30.440815226058753 E54.45625
G1 X73.24835265231115 Y30.1021110778704 E54.50147
G1 X74.27436459181284 Y29.77754906530577 E54.55516
G1 X75.12501404958026 Y29.577437846229977 E54.59876
G1 X76.31436765553603 Y29.396418510246217 E54.65878
G1 X77.11198410471445 Y29.33702154062655 E54.69868
G1 X78.31901538019989 Y29.339142860970107 E54.7589
G1 X79.19158514818409 Y29.412681966213512 E54.80259
G1 X80.36608951173494 Y29.60289369035269 E54.86195
G1 X81.17431256263117 Y29.80159069586611 E54.90347
G1 X82.2922483836871 Y30.17282175598905 E54.96224
G1 X83.23765015013352 Y30.570922873797073 E55.01342
G1 X83.96314170763091 Y30.94144682713883 E55.05406
G1 X85.009659743787 Y31.590570852268076 E55.1155
G1 X85.79596248446643 Y32.17039841284105 E55.16424
G1 X86.60630685570622 Y32.87750519402759 E55.2179
G1 X87.31341363689278 Y33.5973398972755 E55.26824
G1 X87.83101580072132 Y34.204037515533564 E55.30802
G1 X88.54377943615737 Y35.18408751425811 E55.36848
G1 X88.98218564049301 Y35.90392221750603 E55.41053
G1 X89.53090050269378 Y36.98579559272144 E55.47105
G1 X89.90283866959791 Y37.9022059811392 E55.52039
G1 X90.17436767357354 Y38.73942041006408 E55.5643
G1 X90.43741139617495 Y39.84250698871508 E55.62088
G1 X90.59863174228548 Y40.910238228306774 E55.67475
G1 X90.6714637407477 Y41.90796589656099 E55.72466
G1 X90.67217084752888 Y42.707703666082985 E55.76456
G1 X90.5760043252875 Y43.94372631959706 E55.82641
G1 X90.44589667754919 Y44.76397018577346 E55.86785
G1 X90.16446817863692 Y45.93776744254313 E55.92807
G1 X89.92263765947114 Y46.68871484416324 E55.96743
G1 X89.44675479573259 Y47.8420060042785 E56.02967
G1 X88.97935721336827 Y48.747809790978465 E56.08052
G1 X88.57135660062363 Y49.418854126324504 E56.1197
G1 X87.84515793634506 Y50.42365286239058 E56.18156
G1 X87.3282628792977 Y51.033886014554575 E56.22145
G1 X86.4655926062501 Y51.90079892828929 E56.28247
G1 X85.84970259983663 Y52.431836120960384 E56.32304
G1 X84.8406612230834 Y53.17076270730033 E56.38544
G1 X84.08334986043262 Y53.633917648977516 E56.42973
G1 X83.17613186017029 Y54.10272944490419 E56.48067
G1 X82.29154127690592 Y54.47537471858951 E56.52856
G1 X80.7726759109172 Y55.07358705547332 E56.61
G1 X79.29340852467494 Y55.71564001279071 E56.69046
G1 X77.76322945018725 Y56.442545783850484 E56.77497
G1 X76.39851336249723 Y57.14823835147466 E56.85162
G1 X74.96096527634496 Y57.957875615933254 E56.93394
G1 X73.55452988856493 Y58.81418192795016 E57.01609
G1 X72.12758840413046 Y59.753219733365896 E57.10131
G1 X70.82934035387197 Y60.666801694658915 E57.18051
G0 F5100 X70.59882354320517 Y60.34011836175073
G1 F1800 X69.36350799647226 Y61.282691701072395 E57.25803
G1 X68.04333963599697 Y62.35678690169477 E57.34294
G1 X66.86176420463426 Y63.39128412257068 E57.42129
G1 X65.60947809515288 Y64.56154584543442 E57.5068
G1 X64.52336207925035 Y65.64907607489933 E57.58348
G1 X63.37219223947865 Y66.88227030128867 E57.66765
G1 X62.34264476607103 Y68.06031019874546 E57.7457
G1 X61.265014031542734 Y69.38542830668905 E57.83091
G1 X60.325976226127 Y70.61862253307838 E57.90824
G1 X59.389766847836015 Y71.94939749527147 E57.98942
G1 X58.48961991538553 Y73.3190633304298 E58.07119
G1 X57.590887196497434 Y74.79903782345325 E58.15757
G1 X56.79044232019426 Y76.22032245363822 E58.23895
G1 X56.07485025763348 Y77.60483753120147 E58.31671
G1 X55.3429947391054 Y79.14703742096933 E58.40187
G1 X54.714376810630554 Y80.59872764274532 E58.4808
G1 X54.079394921125036 Y82.21234531741302 E58.56731
G1 X53.768975044184145 Y82.94844347662823 E58.60716
G1 X53.28672821941491 Y83.87899600066972 E58.65945
G1 X52.706900658841946 Y84.8152053789607 E58.71439
G1 X52.214754339136114 Y85.48271418040079 E58.75577
G1 X51.45037190867345 Y86.36023369585331 E58.81383
G1 X50.748921981736395 Y87.04612727360427 E58.86277
G1 X50.137981722791224 Y87.56090101030806 E58.90263
G1 X49.30076729386635 Y88.16618441500376 E58.95417
G1 X48.34193049857739 Y88.74318354845197 E59.01
G1 X47.45026884750115 Y89.18653950025595 E59.05968
G1 X46.6964930187563 Y89.4934238432909 E59.10029
G1 X45.601184614698326 Y89.84202748641587 E59.15763
G1 X44.78376917564668 Y90.03294631733624 E59.19951
G1 X43.654519646091764 Y90.20477326516456 E59.2565
G1 X42.85690319691334 Y90.26417023478423 E59.2964
G1 X41.712804424953504 Y90.26275602122186 E59.35348
G1 X40.901045840151355 Y90.19628798379033 E59.39412
G1 X39.72654147660049 Y90.00749047321352 E59.45346
G1 X38.950845337638846 Y89.81869296263672 E59.49329
G1 X37.83573794370767 Y89.44887611607615 E59.55191
G1 X36.97165345709771 Y89.08542323054625 E59.59867
G1 X36.21858473513403 Y88.70005003479959 E59.64088
G1 X35.33823679255678 Y88.163355987879 E59.69232
G1 X34.44091828723105 Y87.5064537881567 E59.7478
G1 X33.67865717711195 Y86.84177341384135 E59.79826
G1 X32.99134938579863 Y86.14315191402903 E59.84715
G1 X32.47374722197007 Y85.53645429577098 E59.88694
G1 X31.797753139155738 Y84.60731598529185 E59.94426
G1 X31.359346934820078 Y83.88748128204395 E59.98631
G1 X30.839623450647967 Y82.86288355610463 E60.04363
G1 X30.477584778680452 Y81.97334322537198 E60.09154
G1 X30.21524816286024 Y81.16794860160049 E60.1338
G1 X29.952204440258846 Y80.06486202294948 E60.19038
G1 X29.80017648230374 Y79.06006328688339 E60.24108
G1 X29.728758697403894 Y78.092034103439 E60.2895
G1 X29.728051590622712 Y77.29229633391701 E60.3294
G1 X29.81926836539578 Y76.11920618392854 E60.38811
G1 X29.9493760131341 Y75.29896231775214 E60.42954
G1 X30.216662376422622 Y74.18456203060214 E60.48671
G1 X30.458492895588414 Y73.43361462898203 E60.52607
G1 X30.908919915204244 Y72.34113465204882 E60.58503
G1 X31.362882468726006 Y71.46007960269037 E60.63448
G1 X31.770883081470643 Y70.78903526734435 E60.67366
G1 X32.46031219312753 Y69.83514821952369 E60.73238
G1 X32.9772072501749 Y69.22491506735969 E60.77227
G1 X33.795329796007735 Y68.40254988083976 E60.83015
G1 X34.411219802421215 Y67.87151268816865 E60.87072
G1 X35.36793527736661 Y67.17076986801278 E60.92988
G1 X36.12524664001741 Y66.70761492633558 E60.97417
G1 X36.978724524909566 Y66.26708740165638 E61.02209
G1 X37.883114098047166 Y65.88454263303444 E61.07108
G1 X39.40197946403587 Y65.28633029615062 E61.15252
G1 X40.87841842315338 Y64.64569155239562 E61.23282
G1 X42.40859749764107 Y63.918785781335856 E61.31733
G1 X43.79735521589144 Y63.20036529165031 E61.39534
G1 X45.247631224105056 Y62.38365695937985 E61.47838
G1 X46.661844786478156 Y61.52240089989464 E61.56099
G1 X48.093028911599724 Y60.58053466735415 E61.64647
G1 X49.40046935001365 Y59.66058874503045 E61.72622
G1 X50.636492003527735 Y58.717308298927605 E61.80379
G1 X51.95666036400302 Y57.64321309830523 E61.8887
G1 X53.138235795365745 Y56.60871587742932 E61.96705
G1 X54.39052190484712 Y55.43845415456558 E62.05256
G1 X55.47663792074965 Y54.35092392510067 E62.12925
G1 X56.62780776052135 Y53.11772969871133 E62.21341
G1 X57.65735523392897 Y51.939689801254545 E62.29146
G1 X58.734985968457266 Y50.61457169331095 E62.37668
G1 X59.67331666709181 Y49.3820845737028 E62.45396
G1 X60.610233152163985 Y48.05060250472853 E62.53518
G1 X61.517451152426325 Y46.66679453394646 E62.61774
G1 X62.409112803502566 Y45.20096217654675 E62.70333
G1 X63.21026478658692 Y43.7789704395806 E62.78476
G1 X63.92514974236652 Y42.395162468798524 E62.86247
G1 X64.6570052608946 Y40.85296257903067 E62.94763
G1 X65.28562318936945 Y39.40127235725468 E63.02656
G1 X65.92060507887496 Y37.78765468258698 E63.11307
G1 X66.23102495581585 Y37.05155652337179 E63.15293
G1 X66.71327178058509 Y36.121003999330284 E63.20522
G1 X67.29309934115805 Y35.1847946210393 E63.26016
G1 X67.7852456608639 Y34.5172858195992 E63.30153
G1 X68.54962809132655 Y33.6397663041467 E63.35959
G1 X69.2510780182636 Y32.95387272639574 E63.40854
G1 X69.86201827720878 Y32.43909898969194 E63.44839
G1 X70.69923270613364 Y31.833815584996252 E63.49993
G1 X71.65877660820381 Y31.25610934476684 E63.55581
G1 X72.55680222031071 Y30.81204628618169 E63.60579
G1 X73.39755218314151 Y30.473342137993335 E63.65102
G1 X74.3655813665859 Y30.167164901739557 E63.70167
G1 X75.21623082435332 Y29.96705368266376 E63.74527
G1 X76.34406614034586 Y29.79522673483544 E63.80218
G1 X77.14168258952428 Y29.73582976521576 E63.84209
G1 X78.28578136148413 Y29.737243978778135 E63.89917
G1 X79.1279455378773 Y29.807247550115605 E63.94133
G1 X80.27133720305595 Y29.991802420005296 E63.99911
G1 X81.04774044879878 Y30.181307037363286 E64.03898
G1 X82.1656762698547 Y30.552538097486227 E64.09775
G1 X83.05521660058739 Y30.9273046915151 E64.14591
G1 X83.78070815808479 Y31.29782864485685 E64.18655
G1 X84.77207186530833 Y31.91301154448914 E64.24476
G1 X85.55837460598777 Y32.49283910506211 E64.2935
G1 X86.32134282288804 Y33.158226586158655 E64.34401
G1 X87.00865061420137 Y33.85684808597097 E64.3929
G1 X87.52625277802993 Y34.46354570422902 E64.43269
G1 X88.20224686084427 Y35.392684014708145 E64.49001
G1 X88.64065306517992 Y36.11251871795605 E64.53206
G1 X89.16037654935204 Y37.13711644389536 E64.58938
G1 X89.52241522131955 Y38.02665677462804 E64.63729
G1 X89.78475183713975 Y38.83205139839951 E64.67955
G1 X90.04779555974116 Y39.93513797705052 E64.73613
G1 X90.19982351769626 Y40.93993671311661 E64.78683
G1 X90.27124130259611 Y41.90796589656099 E64.83525
G1 X90.27194840937729 Y42.70770366608298 E64.87515
G1 X90.18073163460421 Y43.88079381607147 E64.93386
G1 X90.0506239868659 Y44.70103768224786 E64.97529
G1 X89.78333762357738 Y45.81543796939786 E65.03246
G1 X89.5415071044116 Y46.566385371017965 E65.07182
G1 X89.09108008479575 Y47.658865347951185 E65.13078
G1 X88.63711753127399 Y48.53992039730962 E65.18023
G1 X88.22911691852936 Y49.210964732655654 E65.21941
G1 X87.53968780687248 Y50.164851780476305 E65.27813
G1 X87.0227927498251 Y50.7750849326403 E65.31802
G1 X86.20467020399226 Y51.59745011916026 E65.3759
G1 X85.58878019757879 Y52.12848731183135 E65.41647
G1 X84.63206472263339 Y52.82923013198722 E65.47563
G1 X83.87475335998259 Y53.292385073664406 E65.51992
G1 X83.02056836830924 Y53.73361970512481 E65.56789
G1 X82.14446306641912 Y54.10343655168538 E65.61533
G1 X80.61357688515024 Y54.706598636037505 E65.69742
G1 X79.12158157684661 Y55.35430844760438 E65.77857
G1 X77.59140250235893 Y56.08121421866416 E65.86309
G1 X76.20264478410854 Y56.799634708349686 E65.94109
G1 X74.75236877589494 Y57.616343040620144 E66.02413
G1 X73.33815521352186 Y58.477599100105365 E66.10674
G1 X71.90767819518146 Y59.418758225864664 E66.19217
G1 X70.59882354320517 Y60.34011836175073 E66.27202
G0 F5100 X70.36830673253834 Y60.013435028842544
G1 F1800 X69.11107087558867 Y60.9722718241315 E66.35091
G1 X67.78948830155102 Y62.04778123831624 E66.43592
G1 X66.58882098709626 Y63.09854191515945 E66.51552
G1 X65.33653487761487 Y64.26880363802319 E66.60103
G1 X64.23061987183911 Y65.37613285736131 E66.67911
G1 X63.07945003206741 Y66.60932708375066 E66.76327
G1 X62.03363910269251 Y67.80645886429949 E66.84258
G1 X60.954594154601835 Y69.13299118580545 E66.92789
G1 X59.99858578643763 Y70.38881282919276 E67.00663
G1 X59.05530534033477 Y71.72948728632245 E67.08841
G1 X58.147380233291244 Y73.11117393676096 E67.1709
G1 X57.248647514403146 Y74.59114842978441 E67.25728
G1 X56.44183867706929 Y76.02445387524953 E67.33934
G1 X55.71351869244715 Y77.43301058337315 E67.41845
G1 X54.981663173919074 Y78.975210473141 E67.50361
G1 X54.34173153694525 Y80.4523565390397 E67.58393
G1 X53.710285181345654 Y82.05678182555198 E67.66995
G1 X53.39986530440476 Y82.79287998476717 E67.70981
G1 X52.946609857664185 Y83.66898528665732 E67.75902
G1 X52.38445996662088 Y84.57761750048203 E67.81232
G1 X51.89231364691504 Y85.24512630192213 E67.8537
G1 X51.17035762332358 Y86.07456255625394 E67.90856
G1 X50.49082800660331 Y86.73995003735048 E67.95601
G1 X49.879887747658124 Y87.2547237740543 E67.99586
G1 X49.09429211375988 Y87.82394473290947 E68.04427
G1 X48.163739589718375 Y88.38538751717158 E68.09849
G1 X47.298947996327236 Y88.81601554691419 E68.14668
G1 X46.54517216758237 Y89.12289988994915 E68.18729
G1 X45.509967839925274 Y89.45241164998207 E68.24149
G1 X44.69255240087362 Y89.64333048090245 E68.28337
G1 X43.624821161281936 Y89.80596504057534 E68.33725
G1 X42.8272047121035 Y89.86536201019501 E68.37715
G1 X41.74533133688809 Y89.86394779663264 E68.43113
G1 X40.93357275208593 Y89.79747975920111 E68.47176
G1 X39.821293785279494 Y89.61858174356092 E68.52797
G1 X39.04559764631785 Y89.4297842329841 E68.5678
G1 X37.99059432878752 Y89.08047348307795 E68.62324
G1 X37.15408700664383 Y88.72904141282825 E68.66851
G1 X36.40101828468016 Y88.34366821708159 E68.71071
G1 X35.54683329300682 Y87.82182341256589 E68.76065
G1 X34.70325490305125 Y87.20451919259006 E68.8128
G1 X33.96362120993013 Y86.56105202171028 E68.86171
G1 X33.296112408490025 Y85.88364372533358 E68.90916
G1 X32.778510244661476 Y85.27694610707553 E68.94895
G1 X32.13928571446883 Y84.39871948484183 E69.00314
G1 X31.700879510133177 Y83.67888478159392 E69.04519
G1 X31.210147403989716 Y82.71156270493073 E69.0993
G1 X30.858008226958816 Y81.84889243188314 E69.14579
G1 X30.604863999294032 Y81.07531761326504 E69.1864
G1 X30.341820276692637 Y79.97223103461403 E69.24297
G1 X30.19898470689295 Y79.03036480207356 E69.2905
G1 X30.12898113555548 Y78.092034103439 E69.33744
G1 X30.1282740287743 Y77.29229633391702 E69.37734
G1 X30.214541056079064 Y76.18213868745414 E69.4329
G1 X30.344648703817384 Y75.36189482127774 E69.47433
G1 X30.597792931482168 Y74.30689150374741 E69.52846
G1 X30.839623450647967 Y73.55594410212731 E69.56782
G1 X31.264594626141076 Y72.52427530837613 E69.62348
G1 X31.7051221508203 Y71.66796899635924 E69.67153
G1 X32.11312276356494 Y70.99692466101318 E69.71071
G1 X32.765782322600124 Y70.09394930143796 E69.76629
G1 X33.282677379647495 Y69.48371614927397 E69.80619
G1 X34.05625219826557 Y68.70589868996878 E69.86092
G1 X34.672142204679055 Y68.17486149729767 E69.90149
G1 X35.57653177781664 Y67.51230244332588 E69.95743
G1 X36.33384314046744 Y67.0491475016487 E70.00171
G1 X37.134995123551796 Y66.63549003465455 E70.0467
G1 X38.02948520175278 Y66.25718790671976 E70.09515
G1 X39.54835056774149 Y65.65897556983593 E70.17659
G1 X41.050245370981706 Y65.00702311758195 E70.25828
G1 X42.580424445469404 Y64.28011734652218 E70.34279
G1 X43.99322379428012 Y63.54896893477528 E70.42216
G1 X45.45552061777391 Y62.725896641474144 E70.50588
G1 X46.872562607271746 Y61.86322636842656 E70.58864
G1 X48.31293912054874 Y60.91499617485539 E70.67468
G1 X49.630986160680465 Y59.987272077938634 E70.75509
G1 X50.888929124411334 Y59.0277281758685 E70.83402
G1 X52.21051169844899 Y57.95221876168376 E70.91903
G1 X53.41117901290375 Y56.90145808484055 E70.99863
G1 X54.66346512238513 Y55.73119636197681 E71.08414
G1 X55.76938012816088 Y54.62386714263868 E71.16222
G1 X56.92054996793259 Y53.39067291624934 E71.24639
G1 X57.96636089730749 Y52.19354113570052 E71.32569
G1 X59.045405845398165 Y50.86700881419455 E71.411
G1 X60.00141421356237 Y49.61118717080724 E71.48974
G1 X60.944694659665224 Y48.27051271367755 E71.57153
G1 X61.85827662095824 Y46.87751235474005 E71.65464
G1 X62.751352485596854 Y45.40885157021559 E71.74039
G1 X63.55886842971189 Y43.97483901796927 E71.8225
G1 X64.28648130755286 Y42.56698941662685 E71.90156
G1 X65.01833682608094 Y41.024789526858996 E71.98673
G1 X65.65826846305475 Y39.5476434609603 E72.06704
G1 X66.28971481865435 Y37.94321817444802 E72.15306
G1 X66.60013469559523 Y37.207120015232825 E72.19292
G1 X67.05339014233581 Y36.3310147133427 E72.24213
G1 X67.61554003337912 Y35.42238249951798 E72.29544
G1 X68.10768635308496 Y34.75487369807787 E72.33681
G1 X68.82964237667642 Y33.92543744374606 E72.39167
G1 X69.50917199339669 Y33.26004996264952 E72.43912
G1 X70.12011225234187 Y32.74527622594571 E72.47898
G1 X70.90570788624012 Y32.17605526709053 E72.52738
G1 X71.83626041028162 Y31.61461248282842 E72.5816
G1 X72.70600175114107 Y31.183277346304624 E72.63003
G1 X73.54675171397189 Y30.844573198116272 E72.67526
G1 X74.45679814135896 Y30.556780738173348 E72.72287
G1 X75.30744759912639 Y30.356669519097554 E72.76647
G1 X76.3737646251557 Y30.19403495942464 E72.82029
G1 X77.17138107433412 Y30.134637989804972 E72.86019
G1 X78.25325444954954 Y30.13605220336735 E72.91416
G1 X79.0650130343517 Y30.20252024079889 E72.9548
G1 X80.17658489437694 Y30.3807111496579 E73.01096
G1 X80.95298814011977 Y30.570215767015895 E73.05083
G1 X82.01081988477485 Y30.92094073048442 E73.10644
G1 X82.87278305104125 Y31.283686509233114 E73.15309
G1 X83.59827460853865 Y31.65421046257487 E73.19373
G1 X84.53519109361082 Y32.234745129929024 E73.24872
G1 X85.29603799016756 Y32.79477370062876 E73.29586
G1 X86.03637879006988 Y33.43894797828971 E73.34482
G1 X86.70388759150997 Y34.11635627466642 E73.39226
G1 X87.22148975533852 Y34.72305389292448 E73.43205
G1 X87.86071428553116 Y35.60128051515817 E73.48624
G1 X88.29912048986682 Y36.32111521840608 E73.52829
G1 X88.78985259601028 Y37.28843729506928 E73.58241
G1 X89.14199177304118 Y38.15110756811687 E73.62889
G1 X89.39513600070597 Y38.92468238673495 E73.6695
G1 X89.65817972330737 Y40.02776896538597 E73.72608
G1 X89.80101529310704 Y40.96963519792644 E73.7736
G1 X89.87101886444452 Y41.907965896560995 E73.82055
G1 X89.87172597122571 Y42.70770366608298 E73.86045
G1 X89.78545894392093 Y43.817861312545865 E73.916
G1 X89.65535129618262 Y44.638105178722256 E73.95743
G1 X89.40220706851784 Y45.693108496252584 E74.01156
G1 X89.16037654935204 Y46.4440558978727 E74.05092
G1 X88.73540537385892 Y47.47572469162387 E74.10659
G1 X88.2948778491797 Y48.33203100364078 E74.15463
G1 X87.88687723643507 Y49.00307533898681 E74.19381
G1 X87.23421767739987 Y49.906050698562034 E74.2494
G1 X86.7173226203525 Y50.516283850726026 E74.28929
G1 X85.94374780173443 Y51.29410131003122 E74.34402
G1 X85.32785779532095 Y51.82513850270232 E74.3846
G1 X84.42346822218336 Y52.48769755667412 E74.44053
G1 X83.66615685953256 Y52.95085249835131 E74.48482
G1 X82.86429776966702 Y53.365217072126626 E74.52985
G1 X81.99738485593231 Y53.73149838478126 E74.5768
G1 X80.46437735431988 Y54.33536757591457 E74.659
G1 X78.94975462901829 Y54.992976882418056 E74.74138
G1 X77.4195755545306 Y55.719882653477825 E74.8259
G1 X76.00677620571987 Y56.45103106522472 E74.90526
G1 X74.5444793822261 Y57.274103358525856 E74.98898
G1 X73.12743739272827 Y58.13677363157345 E75.07175
G1 X71.68776798623244 Y59.08429671836342 E75.15773
G1 X70.36830673253834 Y60.013435028842544 E75.23824
G0 F5100 X70.13778992187153 Y59.68675169593436
G1 F1800 X68.85863375470507 Y60.66185194719061 E75.31849
G1 X67.53563696710503 Y61.73877557493772 E75.4036
G1 X66.31587776955824 Y62.80579970774822 E75.48445
G1 X65.06359166007687 Y63.97606143061196 E75.56996
G1 X63.93787766442789 Y65.10318963982331 E75.64943
G1 X62.78670782465618 Y66.33638386621266 E75.7336
G1 X61.72463343931399 Y67.55260752985352 E75.81416
G1 X60.644174277660944 Y68.88055406492185 E75.89957
G1 X59.671195346748256 Y70.15900312530712 E75.97972
G1 X58.72084383283354 Y71.50957707737344 E76.06211
G1 X57.805140551196956 Y72.90328454309213 E76.14531
G1 X56.90640783230885 Y74.38325903611556 E76.23169
G1 X56.093235033944325 Y75.82858529686087 E76.31443
G1 X55.35218712726082 Y77.26118363554481 E76.3949
G1 X54.62033160873275 Y78.80338352531267 E76.48006
G1 X53.96908626325993 Y80.30598543533408 E76.56176
G1 X53.34117544156628 Y81.90121833369095 E76.64729
G1 X53.03075556462539 Y82.63731649290614 E76.68715
G1 X52.59164225350854 Y83.4851375235488 E76.73479
G1 X52.062019274399816 Y84.34002962200334 E76.78496
G1 X51.56987295469398 Y85.00753842344344 E76.82633
G1 X50.890343337973704 Y85.78889141665458 E76.87799
G1 X50.23273403147022 Y86.43377280109671 E76.92395
G1 X49.62179377252504 Y86.94854653780051 E76.9638
G1 X48.887816933653404 Y87.48170505081518 E77.00906
G1 X47.98554868085937 Y88.0275914858912 E77.06167
G1 X47.147627145153315 Y88.44549159357243 E77.10839
G1 X46.39385131640845 Y88.7523759366074 E77.14899
G1 X45.41875106515221 Y89.06279581354829 E77.20005
G1 X44.60133562610055 Y89.25371464446866 E77.24192
G1 X43.5951226764721 Y89.40715681598613 E77.2927
G1 X42.79750622729367 Y89.46655378560581 E77.33261
G1 X41.777858248822675 Y89.46513957204343 E77.38348
G1 X40.96609966402051 Y89.3986715346119 E77.42411
G1 X39.91604609395849 Y89.22967301390831 E77.47717
G1 X39.14034995499685 Y89.0408755033315 E77.517
G1 X38.145450713867376 Y88.71207085007977 E77.56928
G1 X37.33652055618997 Y88.37265959511022 E77.61305
G1 X36.583451834226295 Y87.98728639936355 E77.65525
G1 X35.75542979345684 Y87.4802908372528 E77.70369
G1 X34.96559151887147 Y86.90258459702339 E77.75251
G1 X34.248585242748305 Y86.28033062957923 E77.79987
G1 X33.600875431181436 Y85.62413553663811 E77.84587
G1 X33.08327326735288 Y85.01743791838005 E77.88566
G1 X32.48081828978194 Y84.19012298439179 E77.93672
G1 X32.04241208544628 Y83.47028828114388 E77.97877
G1 X31.580671357331465 Y82.5602418537568 E78.02968
G1 X31.238431675237173 Y81.72444163839431 E78.07474
G1 X30.985287447572397 Y80.95086681977621 E78.11535
G1 X30.737092967375915 Y79.9121269582132 E78.16863
G1 X30.59779293148216 Y79.00066631726372 E78.21463
G1 X30.52920357370707 Y78.092034103439 E78.26009
G1 X30.528496466925883 Y77.29229633391701 E78.29999
G1 X30.60981374676234 Y76.24507119097974 E78.35239
G1 X30.739921394500662 Y75.42482732480336 E78.39383
G1 X30.978923486541714 Y74.4292209768927 E78.44491
G1 X31.22075400570752 Y73.67827357527257 E78.48427
G1 X31.6209764438591 Y72.70670885792225 E78.53669
G1 X32.04736183291459 Y71.87585839002807 E78.58328
G1 X32.45536244565923 Y71.20481405468203 E78.62246
G1 X33.07125245207271 Y70.35275038335224 E78.67492
G1 X33.58814750912007 Y69.74251723118824 E78.71481
G1 X34.31717460052341 Y69.0092474990978 E78.7664
G1 X34.933064606936895 Y68.4782103064267 E78.80697
G1 X35.785128278266676 Y67.85383501863899 E78.85967
G1 X36.54243964091747 Y67.39068007696179 E78.90396
G1 X37.318135779879114 Y66.9911647455914 E78.94749
G1 X38.175856305458396 Y66.62983318040507 E78.99393
G1 X39.6947216714471 Y66.03162084352124 E79.07537
G1 X41.22207231881005 Y65.36835468276827 E79.15844
G1 X42.75225139329773 Y64.6414489117085 E79.24296
G1 X44.189092372668796 Y63.897572577900256 E79.32368
G1 X45.664117118223935 Y63.06742921678724 E79.40813
G1 X47.08893728231483 Y62.199809196271346 E79.49135
G1 X48.53284932949776 Y61.249457682356635 E79.57759
G1 X49.86079586456609 Y60.31466251762801 E79.65861
G1 X51.14136624529493 Y59.338148052809395 E79.73896
G1 X52.464363032894965 Y58.26122442506228 E79.82406
G1 X53.68412223044176 Y57.19420029225178 E79.90492
G1 X54.93640833992313 Y56.02393856938804 E79.99043
G1 X56.06212233557211 Y54.89681036017669 E80.0699
G1 X57.21329217534382 Y53.66361613378735 E80.15407
G1 X58.27536656068601 Y52.44739247014648 E80.23462
G1 X59.35582572233906 Y51.119445935078154 E80.32003
G1 X60.329511760032936 Y49.840289767911685 E80.40024
G1 X61.27915616716647 Y48.490422922626564 E80.48258
G1 X62.19910208949016 Y47.088230175533646 E80.56625
G1 X63.09359216769115 Y45.61674096388443 E80.65216
G1 X63.90747207283687 Y44.17070759635795 E80.73494
G1 X64.64781287273918 Y42.73881636445519 E80.81536
G1 X65.37966839126726 Y41.196616474687325 E80.90053
G1 X66.03091373674006 Y39.69401456466591 E80.98223
G1 X66.65882455843372 Y38.098781666309065 E81.06776
G1 X66.9692444353746 Y37.36268350709387 E81.10762
G1 X67.40835774649146 Y36.5148624764512 E81.15525
G1 X67.93798072560018 Y35.65997037799666 E81.20542
G1 X68.43012704530602 Y34.992461576556565 E81.2468
G1 X69.1096566620263 Y34.21110858334542 E81.29846
G1 X69.76726596852977 Y33.5662271989033 E81.34441
G1 X70.37820622747496 Y33.05145346219949 E81.38427
G1 X71.1121830663466 Y32.51829494918483 E81.42953
G1 X72.01445131914063 Y31.972408514108807 E81.48214
G1 X72.85520128197143 Y31.554508406427562 E81.52898
G1 X73.69595124480225 Y31.21580425823921 E81.5742
G1 X74.54801491613203 Y30.946396574607135 E81.61879
G1 X75.39866437389944 Y30.746285355531338 E81.66238
G1 X76.40346310996553 Y30.59284318401386 E81.71309
G1 X77.20107955914395 Y30.533446214394193 E81.753
G1 X78.22072753761496 Y30.53486042795656 E81.80387
G1 X79.03248612241711 Y30.601328465388097 E81.8445
G1 X80.08183258569795 Y30.769619879310497 E81.89752
G1 X80.85823583144077 Y30.959124496668494 E81.9374
G1 X81.85596349969501 Y31.289343363482608 E81.98983
G1 X82.69034950149512 Y31.640068326951138 E82.03498
G1 X83.41584105899251 Y32.01059228029289 E82.07563
G1 X84.29831032191335 Y32.5564787153689 E82.1274
G1 X85.03370137434734 Y33.09670829619543 E82.17292
G1 X85.7514147572517 Y33.719669370420775 E82.22033
G1 X86.39912456881856 Y34.37586446336189 E82.26633
G1 X86.91672673264712 Y34.982562081619946 E82.30612
G1 X87.51918171021805 Y35.809877015608215 E82.35718
G1 X87.95758791455371 Y36.52971171885611 E82.39923
G1 X88.41932864266853 Y37.4397581462432 E82.45014
G1 X88.76156832476282 Y38.2755583616057 E82.4952
G1 X89.01471255242761 Y39.049133180223784 E82.53581
G1 X89.26290703262408 Y40.08787304178682 E82.58909
G1 X89.40220706851784 Y40.99933368273628 E82.63509
G1 X89.47079642629294 Y41.907965896560995 E82.68055
G1 X89.47150353307411 Y42.70770366608298 E82.72045
G1 X89.39018625323767 Y43.75492880902026 E82.77285
G1 X89.26007860549934 Y44.57517267519665 E82.81429
G1 X89.02107651345828 Y45.570779023107306 E82.86537
G1 X88.77924599429248 Y46.32172642472743 E82.90473
G1 X88.37902355614091 Y47.29329114207774 E82.95715
G1 X87.95263816708541 Y48.12414160997193 E83.00374
G1 X87.54463755434077 Y48.79518594531797 E83.04292
G1 X86.9287475479273 Y49.647249616647755 E83.09538
G1 X86.41185249087992 Y50.25748276881175 E83.13527
G1 X85.6828253994766 Y50.9907525009022 E83.18686
G1 X85.0669353930631 Y51.5217896935733 E83.22743
G1 X84.21487172173332 Y52.14616498136102 E83.28013
G1 X83.45756035908252 Y52.60931992303821 E83.32442
G1 X82.6811571133397 Y53.009542361189794 E83.368
G1 X81.85030664544551 Y53.35956021787713 E83.41298
G1 X80.3052783285529 Y53.96837915647875 E83.49583
G1 X78.77792768118995 Y54.63164531723173 E83.57891
G1 X77.24774860670226 Y55.3585510882915 E83.66342
G1 X75.8109076273312 Y56.10242742209975 E83.74414
G1 X74.33588288177606 Y56.93257078321276 E83.82859
G1 X72.91106271768517 Y57.800190803728654 E83.91181
G1 X71.46785777728343 Y58.74983521086219 E83.998
G1 X70.13778992187153 Y59.68675169593436 E84.07917
G0 F5100 X69.90515179086117 Y59.362189683369735
G1 F1800 X68.60619663382147 Y60.351432070249714 E84.16063
G1 X67.28178563265907 Y61.429769911559205 E84.24584
G1 X66.04293455202023 Y62.51305750033699 E84.32794
G1 X64.79064844253887 Y63.683319223200726 E84.41345
G1 X63.64513545701666 Y64.8302464222853 E84.49432
G1 X62.49396561724495 Y66.06344064867464 E84.57849
G1 X61.414920669154284 Y67.29946330218873 E84.66035
G1 X60.33375440072005 Y68.62811694403825 E84.74581
G1 X59.34663333418363 Y69.92636499429675 E84.82717
G1 X58.38638232533229 Y71.28966686842442 E84.91037
G1 X57.46290086910267 Y72.69539514942328 E84.99428
G1 X56.56416815021456 Y74.17536964244671 E85.08066
G1 X55.74463139081935 Y75.6327167184722 E85.16408
G1 X54.99085556207449 Y77.08935668771647 E85.2459
G1 X54.25900004354642 Y78.63155657748435 E85.33107
G1 X53.596440989574624 Y80.15961433162848 E85.41416
G1 X52.97206570178691 Y81.74565484182989 E85.4992
G1 X52.661645824846005 Y82.48175300104509 E85.53906
G1 X52.25152389175781 Y83.2751268095364 E85.58361
G1 X51.73957858217876 Y84.10244174352465 E85.63215
G1 X51.24743226247291 Y84.76995054496476 E85.67353
G1 X50.61032905262384 Y85.5032202770552 E85.72199
G1 X49.97464005633712 Y86.12759556484293 E85.76644
G1 X49.36369979739196 Y86.64236930154674 E85.8063
G1 X48.653057482299474 Y87.15785014503173 E85.8501
G1 X47.80735777200036 Y87.6697954546108 E85.89942
G1 X46.99630629397939 Y88.07496764023068 E85.94465
G1 X46.24253046523452 Y88.38185198326565 E85.98525
G1 X45.327534290379134 Y88.6731799771145 E86.03316
G1 X44.51011885132749 Y88.86409880803487 E86.07504
G1 X43.56542419166226 Y89.00834859139692 E86.12272
G1 X42.76780774248384 Y89.0677455610166 E86.16262
G1 X41.81038516075725 Y89.06633134745422 E86.21039
G1 X40.9986265759551 Y88.99986331002269 E86.25102
G1 X40.01079840263749 Y88.84076428425571 E86.30094
G1 X39.23510226367585 Y88.65196677367891 E86.34077
G1 X38.29959999216604 Y88.3429611103004 E86.38992
G1 X37.518954105736086 Y88.0162777773922 E86.43214
G1 X36.76588538377242 Y87.63090458164552 E86.47435
G1 X35.964733400688054 Y87.13946536872089 E86.52124
G1 X35.22722102791049 Y86.59994289467555 E86.56682
G1 X34.5328421687853 Y85.99890213066698 E86.61264
G1 X33.90563845387283 Y85.36462734794264 E86.65715
G1 X33.38803629004428 Y84.75792972968458 E86.69693
G1 X32.822350865095046 Y83.98152648394176 E86.74486
G1 X32.38394466075938 Y83.26169178069385 E86.78691
G1 X31.950488203892025 Y82.4082138958017 E86.83466
G1 X31.618855123515537 Y81.59999084490548 E86.87825
G1 X31.36571089585076 Y80.82641602628738 E86.91886
G1 X31.1323656580592 Y79.85060866824995 E86.96891
G1 X30.996601156071378 Y78.96955361889151 E87.01339
G1 X30.929426011858656 Y78.092034103439 E87.0573
G1 X30.92871890507747 Y77.29229633391702 E87.09719
G1 X31.005086437445616 Y76.30800369450535 E87.14645
G1 X31.135194085183944 Y75.48775982832896 E87.18788
G1 X31.36005404160126 Y74.55155045003796 E87.23592
G1 X31.60188456076707 Y73.80060304841784 E87.27528
G1 X31.977358261577123 Y72.88914240746838 E87.32446
G1 X32.38960151500888 Y72.08374778369691 E87.3696
G1 X32.797602127753514 Y71.41270344835088 E87.40878
G1 X33.376722581545295 Y70.61155146526652 E87.4581
G1 X33.893617638592666 Y70.00131831310253 E87.498
G1 X34.57809700278125 Y69.31259630822683 E87.54644
G1 X35.19398700919473 Y68.78155911555572 E87.58701
G1 X35.99372477871671 Y68.19536759395208 E87.63648
G1 X36.7510361413675 Y67.7322126522749 E87.68077
G1 X37.47369927174015 Y67.36027448537077 E87.72132
G1 X38.3229345159452 Y67.00177134730919 E87.76731
G1 X39.853820697214076 Y66.39860926295708 E87.8494
G1 X41.39389926663837 Y65.7296862479546 E87.93317
G1 X42.92407834112606 Y65.00278047689483 E88.01768
G1 X44.38496095105747 Y64.24617622102522 E88.09976
G1 X45.87271361867397 Y63.40896179210034 E88.18493
G1 X47.30531195735791 Y62.53639202411615 E88.26862
G1 X48.75275953844677 Y61.583919189857866 E88.35506
G1 X50.09343399557647 Y60.63922453019264 E88.43689
G1 X51.39380336617853 Y59.64856792975029 E88.51844
G1 X52.718214367340934 Y58.570230088440795 E88.60365
G1 X53.957065447979765 Y57.48694249966301 E88.68575
G1 X55.20935155746113 Y56.316680776799274 E88.77127
G1 X56.35486454298334 Y55.169753577714694 E88.85214
G1 X57.50603438275505 Y53.93655935132536 E88.9363
G1 X58.585079330845716 Y52.70053669781127 E89.01816
G1 X59.666245599279954 Y51.371883055961746 E89.10362
G1 X60.654073772597556 Y50.07292789892206 E89.18504
G1 X61.61361767466771 Y48.71033313157558 E89.26818
G1 X62.53992755802208 Y47.298947996327236 E89.35241
G1 X63.43583184978543 Y45.82463035755328 E89.43848
G1 X64.25607571596183 Y44.366576174746626 E89.52194
G1 X65.0091444379255 Y42.91064331228352 E89.60372
G1 X65.74099995645359 Y41.368443422515654 E89.68888
G1 X66.40355901042538 Y39.84038566837153 E89.77197
G1 X67.0279342982131 Y38.2543451581701 E89.85701
G1 X67.338354175154 Y37.51824699895491 E89.89687
G1 X67.74847610824219 Y36.7248731904636 E89.94143
G1 X68.26042141782125 Y35.89755825647534 E89.98996
G1 X68.75256773752707 Y35.23004945503524 E90.03134
G1 X69.38967094737616 Y34.496779722944794 E90.0798
G1 X70.02535994366288 Y33.872404435157065 E90.12426
G1 X70.63630020260804 Y33.357630698453264 E90.16411
G1 X71.34694251770053 Y32.84214985496827 E90.20791
G1 X72.19264222799964 Y32.33020454538921 E90.25723
G1 X73.00510791958298 Y31.925032359769318 E90.30253
G1 X73.81686650438513 Y31.596934813298763 E90.34621
G1 X74.63923169090509 Y31.33601241104092 E90.38925
G1 X75.48988114867251 Y31.135901191965132 E90.43285
G1 X76.43316159477536 Y30.99165140860308 E90.48046
G1 X77.23077804395379 Y30.9322544389834 E90.52036
G1 X78.18820062568037 Y30.933668652545773 E90.56813
G1 X78.99995921048254 Y31.000136689977307 E90.60876
G1 X79.98708027701896 Y31.158528608963092 E90.65864
G1 X80.76348352276179 Y31.34803322632109 E90.69851
G1 X81.70110711461516 Y31.657745996480795 E90.74778
G1 X82.507915951949 Y31.99645014466915 E90.79143
G1 X83.2334075094464 Y32.3669740980109 E90.83207
G1 X84.06213665699703 Y32.878919407589976 E90.88067
G1 X84.77207186530832 Y33.399349998543265 E90.92459
G1 X85.4671578312147 Y34.001097869333016 E90.97046
G1 X86.09436154612717 Y34.63537265205735 E91.01496
G1 X86.61196370995572 Y35.24207027031541 E91.05475
G1 X87.17764913490495 Y36.018473516058236 E91.10267
G1 X87.61605533924062 Y36.73830821930615 E91.14472
G1 X88.04951179610798 Y37.5917861041983 E91.19248
G1 X88.38114487648446 Y38.40000915509453 E91.23606
G1 X88.63428910414925 Y39.17358397371262 E91.27667
G1 X88.8676343419408 Y40.14939133175005 E91.32673
G1 X89.00339884392862 Y41.03044638110849 E91.3712
G1 X89.07057398814135 Y41.907965896560995 E91.41511
G1 X89.07128109492254 Y42.70770366608298 E91.45501
G1 X88.99491356255439 Y43.691996305494655 E91.50426
G1 X88.86480591481606 Y44.51224017167105 E91.54569
G1 X88.63994595839874 Y45.448449549962035 E91.59373
G1 X88.39811543923294 Y46.19939695158215 E91.63309
G1 X88.02264173842288 Y47.110857592531616 E91.68227
G1 X87.61039848499112 Y47.91625221630309 E91.72741
G1 X87.2023978722465 Y48.587296551649125 E91.76659
G1 X86.62327741845469 Y49.388448534733485 E91.81591
G1 X86.10638236140733 Y49.99868168689748 E91.85581
G1 X85.42190299721875 Y50.68740369177317 E91.90425
G1 X84.80601299080527 Y51.21844088444426 E91.94482
G1 X84.00627522128329 Y51.804632406047915 E91.99429
G1 X83.24896385863251 Y52.2677873477251 E92.03858
G1 X82.52559362147866 Y52.64043262141041 E92.07918
G1 X81.7032284349587 Y52.987622050973 E92.12371
G1 X80.14617930278592 Y53.601390737042934 E92.20721
G1 X78.60610073336163 Y54.27031375204541 E92.29098
G1 X77.07592165887394 Y54.99721952310517 E92.3755
G1 X75.61503904894252 Y55.753823778974784 E92.45758
G1 X74.12728638132603 Y56.59103820789966 E92.54275
G1 X72.69468804264208 Y57.46360797588385 E92.62643
G1 X71.24794756833441 Y58.41537370336094 E92.71283
G1 X69.90515179086117 Y59.362189683369735 E92.7948
G0 F5100 X69.67251365985078 Y59.03762767080511
G1 F1800 X68.35375951293788 Y60.041012193308816 E92.87747
G1 X67.0279342982131 Y61.12076424818068 E92.96278
G1 X65.76999133448223 Y62.22031529292576 E93.04613
G1 X64.51770522500085 Y63.39057701578949 E93.13164
G1 X63.35239324960543 Y64.5573032047473 E93.21391
G1 X62.20122340983372 Y65.79049743113664 E93.29808
G1 X61.10520789899458 Y67.04631907452395 E93.38124
G1 X60.023334523779155 Y68.37567982315466 E93.46674
G1 X59.02136421483782 Y69.69443397006758 E93.54937
G1 X58.05192081783106 Y71.0697566594754 E93.63332
G1 X57.12207540057075 Y72.48467732862967 E93.71779
G1 X56.22192846812028 Y73.96748024877787 E93.80433
G1 X55.39602774769439 Y75.43684814008351 E93.88843
G1 X54.62952399688817 Y76.91752973988815 E93.97161
G1 X53.89766847836009 Y78.45972962965601 E94.05677
G1 X53.22379571588931 Y80.01324322792286 E94.14126
G1 X52.60295596200753 Y81.59009134996886 E94.2258
G1 X52.29253608506663 Y82.32618950918405 E94.26566
G1 X51.896556287602166 Y83.09127904642789 E94.30864
G1 X51.41713788995768 Y83.86485386504599 E94.35404
G1 X50.92499157025185 Y84.53236266648608 E94.39542
G1 X50.329607660492776 Y85.21825624423704 E94.44073
G1 X49.716546081204044 Y85.82141832858916 E94.48364
G1 X49.10560582225886 Y86.33619206529296 E94.5235
G1 X48.418298030945536 Y86.8339952392483 E94.56584
G1 X47.628459756360165 Y87.31270653011158 E94.61191
G1 X46.844985442805466 Y87.70444368688894 E94.65561
G1 X46.09120961406061 Y88.01132802992389 E94.69622
G1 X45.23631751560607 Y88.28356414068072 E94.74098
G1 X44.418902076554424 Y88.47448297160109 E94.78286
G1 X43.535725706852425 Y88.60954036680772 E94.82743
G1 X42.738109257674 Y88.66893733642739 E94.86734
G1 X41.842912072691824 Y88.66752312286502 E94.912
G1 X41.031153487889675 Y88.60105508543347 E94.95263
G1 X40.10555071131648 Y88.45185555460313 E94.99941
G1 X39.32985457235484 Y88.2630580440263 E95.03924
G1 X38.453749270464705 Y87.97385137052102 E95.08526
G1 X37.701387655282225 Y87.65989595967417 E95.12594
G1 X36.94831893331855 Y87.27452276392751 E95.16814
G1 X36.17403700791928 Y86.79863990018896 E95.21348
G1 X35.48885053694952 Y86.2973011923277 E95.25584
G1 X34.81709909482229 Y85.71747363175474 E95.30011
G1 X34.21040147656424 Y85.10511915924718 E95.34312
G1 X33.69279931273569 Y84.49842154098913 E95.38291
G1 X33.16388344040814 Y83.77292998349174 E95.4277
G1 X32.725477236072486 Y83.05309528024382 E95.46975
G1 X32.320305050452596 Y82.25618593784658 E95.51435
G1 X31.9992785717939 Y81.47554005141664 E95.55646
G1 X31.746134344129125 Y80.70196523279854 E95.59707
G1 X31.527638348742475 Y79.78909037828672 E95.6439
G1 X31.39540938066059 Y78.9384409205193 E95.68685
G1 X31.32964845001024 Y78.092034103439 E95.7292
G1 X31.328941343229058 Y77.29229633391701 E95.7691
G1 X31.400359128128898 Y76.37093619803095 E95.8152
G1 X31.530466775867218 Y75.55069233185456 E95.85664
G1 X31.741184596660815 Y74.67387992318324 E95.90163
G1 X31.983015115826614 Y73.92293252156313 E95.94099
G1 X32.33374007929514 Y73.07157595701452 E95.98692
G1 X32.731841197103165 Y72.29163717736577 E96.03061
G1 X33.1398418098478 Y71.62059284201973 E96.06979
G1 X33.68219271101788 Y70.8703525471808 E96.11598
G1 X34.199087768065255 Y70.2601193950168 E96.15588
G1 X34.839019405039075 Y69.61594511735585 E96.20118
G1 X35.454909411452554 Y69.08490792468477 E96.24175
G1 X36.20302838594793 Y68.53619306248399 E96.28804
G1 X36.93417679769482 Y68.08788736321173 E96.33082
G1 X37.62996987038238 Y67.72867711836898 E96.36989
G1 X38.470012726432 Y67.37370951421332 E96.41539
G1 X40.012919722981046 Y66.7655976823929 E96.49813
G1 X41.56572621446671 Y66.09101781314092 E96.58259
G1 X43.09590528895439 Y65.36411204208115 E96.66711
G1 X44.58082952944614 Y64.59477986415018 E96.75054
G1 X46.081310119124 Y63.750494367413445 E96.83644
G1 X47.52168663240099 Y62.87297485196095 E96.92059
G1 X48.97266974739579 Y61.918380697359105 E97.00724
G1 X50.326072126586844 Y60.96378654275726 E97.08987
G1 X51.64624048706213 Y59.958987806691184 E97.17264
G1 X52.9720657017869 Y58.87923575181932 E97.25794
G1 X54.23000866551777 Y57.77968470707424 E97.3413
G1 X55.48229477499915 Y56.60942298421051 E97.42681
G1 X56.64760675039457 Y55.4426967952527 E97.50908
G1 X57.79877659016628 Y54.209502568863364 E97.59324
G1 X58.89479210100542 Y52.95368092547605 E97.6764
G1 X59.97666547622084 Y51.624320176845345 E97.76191
G1 X60.97934289194337 Y50.30485892315125 E97.84459
G1 X61.94807918216894 Y48.9302433405246 E97.92849
G1 X62.880753026554 Y47.509665817120826 E98.01327
G1 X63.77807153187972 Y46.032519751222125 E98.0995
G1 X64.6046793590868 Y44.562444753135296 E98.18364
G1 X65.37047600311183 Y43.08247026011185 E98.26677
G1 X66.10233152163991 Y41.54027037034399 E98.35194
G1 X66.77620428411069 Y39.98675677207714 E98.43642
G1 X67.39704403799247 Y38.40990865003114 E98.52097
G1 X67.70746391493336 Y37.67381049081595 E98.56082
G1 X68.10344371239783 Y36.9087209535721 E98.6038
G1 X68.58286211004231 Y36.13514613495402 E98.64921
G1 X69.07500842974815 Y35.46763733351392 E98.69058
G1 X69.67039233950723 Y34.78174375576297 E98.7359
G1 X70.28345391879596 Y34.17858167141084 E98.7788
G1 X70.89439417774115 Y33.66380793470703 E98.81866
G1 X71.58170196905446 Y33.166004760751704 E98.861
G1 X72.37154024363984 Y32.68729346988841 E98.90708
G1 X73.15501455719453 Y32.295556313111064 E98.95078
G1 X73.93778176396805 Y31.97806536835831 E98.99292
G1 X74.73044846567817 Y31.72562824747471 E99.03443
G1 X75.58109792344557 Y31.525517028398916 E99.07802
G1 X76.4628600795852 Y31.390459633192282 E99.12253
G1 X77.26047652876363 Y31.331062663572617 E99.16243
G1 X78.1556737137458 Y31.33247687713499 E99.20709
G1 X78.96743229854796 Y31.39894491456652 E99.24773
G1 X79.89232796833996 Y31.547437338615698 E99.29446
G1 X80.66873121408278 Y31.736941955973695 E99.33433
G1 X81.54695783631648 Y32.026855736260174 E99.38047
G1 X82.32548240240287 Y32.35283196238718 E99.42258
G1 X83.05097395990026 Y32.72335591572892 E99.46322
G1 X83.82596299208072 Y33.20136009981104 E99.50865
G1 X84.5104423562693 Y33.701991700891114 E99.55096
G1 X85.1829009051777 Y34.282526368245264 E99.59528
G1 X85.78959852343576 Y34.89488084075282 E99.63829
G1 X86.30720068726431 Y35.50157845901087 E99.67807
G1 X86.83611655959186 Y36.227070016508264 E99.72287
G1 X87.27452276392752 Y36.94690471975617 E99.76491
G1 X87.6796949495474 Y37.74381406215341 E99.80952
G1 X88.00072142820609 Y38.52445994858336 E99.85163
G1 X88.25386565587088 Y39.29803476720145 E99.89224
G1 X88.47236165125753 Y40.21090962171328 E99.93907
G1 X88.6045906193394 Y41.061559079480695 E99.98201
G1 X88.67035154998976 Y41.907965896560995 E100.02437
G1 X88.67105865677094 Y42.70770366608298 E100.06427
G1 X88.5996408718711 Y43.62906380196905 E100.11037
G1 X88.46953322413277 Y44.449307668145444 E100.15181
G1 X88.2588154033392 Y45.326120076816764 E100.1968
G1 X88.01698488417338 Y46.07706747843688 E100.23616
G1 X87.66625992070485 Y46.92842404298548 E100.28209
G1 X87.26815880289683 Y47.70836282263424 E100.32578
G1 X86.86015819015219 Y48.379407157980275 E100.36496
G1 X86.31780728898212 Y49.129647452819206 E100.41115
G1 X85.80091223193475 Y49.7398806049832 E100.45105
G1 X85.16098059496092 Y50.38405488264414 E100.49635
G1 X84.54509058854744 Y50.915092075315236 E100.53692
G1 X83.79697161405207 Y51.463806937516 E100.5832
G1 X83.06582320230518 Y51.912112636788265 E100.62599
G1 X82.34245296515134 Y52.28475791047358 E100.66659
G1 X81.5561502244719 Y52.615683884068886 E100.70915
G1 X79.98708027701895 Y53.23440231760711 E100.7933
G1 X78.43427378553329 Y53.90898218685908 E100.87776
G1 X76.9040947110456 Y54.63588795791885 E100.96228
G1 X75.41917047055387 Y55.40522013584981 E101.04571
G1 X73.918689880876 Y56.24950563258655 E101.13161
G1 X72.47831336759901 Y57.12702514803906 E101.21576
G1 X71.02803735938541 Y58.08091219585971 E101.30236
G1 X69.67251365985078 Y59.03762767080511 E101.38513
G1 F2400 E94.38513
G0 F5100 X70.58821694148736 Y57.41198918085723
G1 F2400 E101.38513
G1 F1800 X69.20794450461122 Y58.38779653889467 E101.46947
G1 X67.84888527117067 Y59.42017243942703 E101.55462
G1 X66.52023162932116 Y60.502752921423635 E101.64012
G1 X65.22410489940621 Y61.6348308781033 E101.72598
G1 X63.97181878992484 Y62.80509260096703 E101.81149
G1 X62.76690883478297 Y64.01141676967129 E101.89655
G1 X61.61573899501126 Y65.24461099606062 E101.98071
G1 X60.48578235867516 Y66.54003061919438 E102.06648
G1 X59.402494769897366 Y67.87080558138746 E102.15208
G1 X58.37082597614619 Y69.2305719216092 E102.23724
G1 X57.382997802828584 Y70.62993624157737 E102.3227
G1 X56.43759603638217 Y72.068898541292 E102.40859
G1 X55.5374491039317 Y73.55170146144019 E102.49514
G1 X54.698820461444456 Y75.04511098330617 E102.58059
G1 X53.90686086651552 Y76.5738758442315 E102.66648
G1 X53.175005347987444 Y78.11607573399935 E102.75165
G1 X52.489818877017676 Y79.6950451763889 E102.83752
G1 X51.86473648244877 Y81.27896436624677 E102.92247
G1 X51.55431660550788 Y82.01506252546197 E102.96233
G1 X51.18662107929087 Y82.7235835202109 E103.00215
G1 X50.772963612296735 Y83.39038521486981 E103.0413
G1 X50.29990917568294 Y84.03314527896838 E103.08112
G1 X49.76816487623066 Y84.64832817860068 E103.12169
G1 X49.20035813093786 Y85.20906385608161 E103.1615
G1 X48.58941787199269 Y85.72383759278542 E103.20136
G1 X47.950193341800045 Y86.18487121411904 E103.24068
G1 X47.268542404736216 Y86.59782157433199 E103.28044
G1 X46.542343740457625 Y86.96339578020543 E103.321
G1 X45.81755928974142 Y87.25967352152259 E103.36006
G1 X45.05388396605995 Y87.50433246781314 E103.40007
G1 X44.26616701181813 Y87.68959444448402 E103.44044
G1 X43.476328737232755 Y87.81192391762929 E103.48032
G1 X42.67871228805433 Y87.87132088724896 E103.52022
G1 X41.907965896560995 Y87.86990667368659 E103.55867
G1 X41.09620731175884 Y87.80343863625505 E103.59931
G1 X40.29505532867448 Y87.67403809529792 E103.6398
G1 X39.51935918971284 Y87.4852405847211 E103.67963
G1 X38.76063361349967 Y87.23421767739988 E103.7195
G1 X38.03726337634583 Y86.9336972953956 E103.75858
G1 X37.313893139192 Y86.56246623527265 E103.79914
G1 X36.64497012418953 Y86.15234430218446 E103.83829
G1 X36.00998823468401 Y85.68989646728845 E103.87748
G1 X35.3841987333339 Y85.15320242036788 E103.91861
G1 X34.819927521947044 Y84.58610278185627 E103.95852
G1 X34.302325358118495 Y83.9794051635982 E103.99831
G1 X33.84694859103435 Y83.35573698259167 E104.03683
G1 X33.423391629103605 Y82.66206523024766 E104.07738
G1 X33.05993874357373 Y81.95071580837399 E104.11723
G1 X32.76012546835063 Y81.22663846443896 E104.15633
G1 X32.506981240685846 Y80.45306364582088 E104.19694
G1 X32.318183730109034 Y79.6646395847979 E104.23739
G1 X32.19302582983902 Y78.8748013102125 E104.27728
G1 X32.130093326313414 Y78.092034103439 E104.31646
G1 X32.12938621953222 Y77.29229633391702 E104.35636
G1 X32.190904509495454 Y76.49538699151978 E104.39624
G1 X32.3146481962031 Y75.70696293049679 E104.43605
G1 X32.503445706779914 Y74.91853886947378 E104.4765
G1 X32.745276225945716 Y74.16759146785365 E104.51586
G1 X33.04650371473118 Y73.43361462898203 E104.55544
G1 X33.41632056129174 Y72.70741596470344 E104.5961
G1 X33.824321174036385 Y72.0363716293574 E104.63528
G1 X34.29313296996306 Y71.38795471100936 E104.6752
G1 X34.81002802701043 Y70.77772155884536 E104.7151
G1 X35.36086420955475 Y70.22264273561392 E104.75411
G1 X35.976754215968235 Y69.69160554294282 E104.79469
G1 X36.62234270719155 Y69.21713689276665 E104.83466
G1 X37.30045811034945 Y68.7992367850854 E104.8744
G1 X37.99625118303701 Y68.44002654024263 E104.91346
G1 X38.7641691474056 Y68.11758584802156 E104.95501
G1 X40.33111777451499 Y67.49957452126453 E105.03905
G1 X41.909380110123365 Y66.81368094351357 E105.1249
G1 X43.439559184611056 Y66.0867751724538 E105.20942
G1 X44.97256668622349 Y65.29198715040012 E105.29557
G1 X46.49850312002406 Y64.43355951803966 E105.38292
G1 X47.95443598248716 Y63.54614050765054 E105.46799
G1 X49.412490165293825 Y62.587303712361575 E105.55505
G1 X50.79134838860759 Y61.61291056788651 E105.63928
G1 X52.15111472882932 Y60.579827560572966 E105.72448
G1 X53.47976837067884 Y59.497247078576365 E105.80999
G1 X54.775895100593786 Y58.3651691218967 E105.89584
G1 X56.02818121007516 Y57.19490739903297 E105.98135
G1 X57.23309116521703 Y55.988583230328715 E106.06642
G1 X58.38426100498874 Y54.75538900393938 E106.15058
G1 X59.51421764132484 Y53.459969380805624 E106.23634
G1 X60.59750523010263 Y52.129194418612535 E106.32195
G1 X61.629881130634985 Y50.76872097160962 E106.40715
G1 X62.61700219717141 Y49.37006375842263 E106.49256
G1 X63.56240396361783 Y47.93110145870801 E106.57846
G1 X64.46255089606831 Y46.44829853855982 E106.665
G1 X65.30188664533674 Y44.95418190991264 E106.7505
G1 X66.09313913348448 Y43.42612415576851 E106.83635
G1 X66.82499465201256 Y41.883924266000655 E106.92151
G1 X67.51018112298232 Y40.30495482361109 E107.00739
G1 X68.13526351755122 Y38.721035633753225 E107.09234
G1 X68.44568339449212 Y37.98493747453803 E107.13219
G1 X68.81337892070914 Y37.276416479789106 E107.17202
G1 X69.22703638770327 Y36.60961478513019 E107.21117
G1 X69.70009082431706 Y35.96685472103162 E107.25098
G1 X70.23183512376934 Y35.35167182139932 E107.29155
G1 X70.79964186906214 Y34.79093614391839 E107.33137
G1 X71.4105821280073 Y34.27616240721459 E107.37122
G1 X72.04980665819996 Y33.81512878588096 E107.41054
G1 X72.73145759526378 Y33.40217842566802 E107.4503
G1 X73.45765625954236 Y33.03660421979457 E107.49087
G1 X74.18244071025859 Y32.74032647847741 E107.52993
G1 X74.9439947135965 Y32.49637463896805 E107.56983
G1 X75.73383298818186 Y32.31040555551599 E107.61031
G1 X76.52225704920488 Y32.188076082370706 E107.65011
G1 X77.3198734983833 Y32.12867911275104 E107.69002
G1 X78.09061988987663 Y32.130093326313414 E107.72847
G1 X78.9023784746788 Y32.19656136374495 E107.7691
G1 X79.70282335098196 Y32.325254797920906 E107.80955
G1 X80.47922659672479 Y32.5147594152789 E107.84942
G1 X81.23936638650032 Y32.765782322600124 E107.88936
G1 X81.9606153033106 Y33.06559559782322 E107.92833
G1 X82.68610686080801 Y33.436119551164964 E107.96897
G1 X83.35502987581047 Y33.84765569781554 E108.00815
G1 X83.9893046585348 Y34.30939642593036 E108.0473
G1 X84.6158012666661 Y34.846797579632124 E108.08848
G1 X85.18007247805296 Y35.41389721814374 E108.12839
G1 X85.6976746418815 Y36.0205948364018 E108.16818
G1 X86.15305140896565 Y36.644263017408335 E108.2067
G1 X86.5766083708964 Y37.33793476975234 E108.24725
G1 X86.94006125642628 Y38.04928419162601 E108.2871
G1 X87.23987453164938 Y38.77336153556103 E108.3262
G1 X87.49301875931415 Y39.54693635417911 E108.36681
G1 X87.68181626989096 Y40.33536041520211 E108.40726
G1 X87.80697417016098 Y41.12519868978749 E108.44715
G1 X87.86990667368659 Y41.907965896560995 E108.48633
G1 X87.87061378046778 Y42.70770366608298 E108.52623
G1 X87.80909549050455 Y43.50461300848022 E108.56611
G1 X87.68535180379689 Y44.29303706950322 E108.60592
G1 X87.49655429322009 Y45.08146113052622 E108.64637
G1 X87.25472377405428 Y45.83240853214633 E108.68573
G1 X86.95349628526883 Y46.566385371017965 E108.72531
G1 X86.58367943870826 Y47.29258403529656 E108.76597
G1 X86.17567882596362 Y47.963628370642596 E108.80515
G1 X85.70686703003695 Y48.61204528899065 E108.84507
G1 X85.18997197298957 Y49.22227844115464 E108.88497
G1 X84.63913579044525 Y49.77735726438608 E108.92398
G1 X84.02324578403176 Y50.30839445705718 E108.96455
G1 X83.37765729280845 Y50.782863107233354 E109.00453
G1 X82.69954188965055 Y51.2007632149146 E109.04427
G1 X82.003748816963 Y51.559973459757366 E109.08333
G1 X81.2619938034983 Y51.87180755026064 E109.12348
G1 X79.668882225485 Y52.50042547873548 E109.20892
G1 X78.09061988987663 Y53.186319056486425 E109.29477
G1 X76.56044081538894 Y53.9132248275462 E109.37929
G1 X75.02743331377651 Y54.70801284959988 E109.46544
G1 X73.50149687997595 Y55.56644048196035 E109.55279
G1 X72.04556401751285 Y56.45385949234946 E109.63786
G1 X70.58821694148736 Y57.41198918085723 E109.72487
G0 F5100 X70.80812715043638 Y57.74645068835847
G1 F1800 X69.43987552884042 Y58.71306565824049 E109.80845
G1 X68.10132239205427 Y59.730592316367925 E109.89233
G1 X66.77408296376713 Y60.811758584802156 E109.97774
G1 X65.49704811694421 Y61.92757308551453 E110.06234
G1 X64.24476200746285 Y63.09783480837826 E110.14785
G1 X63.05965104219419 Y64.28435998720929 E110.23152
G1 X61.90848120242249 Y65.51755421359863 E110.31569
G1 X60.795495128834865 Y66.79317484685916 E110.40014
G1 X59.71291464683826 Y68.12324270227106 E110.4857
G1 X58.69609509549201 Y69.46250294583838 E110.5696
G1 X57.71745931032983 Y70.84984645052639 E110.6543
G1 X56.77983571847646 Y72.27678793496084 E110.73948
G1 X55.87968878602599 Y73.75959085510902 E110.82602
G1 X55.04742410456942 Y75.24097956169484 E110.9108
G1 X54.26819243170185 Y76.74570279205982 E110.99534
G1 X53.53633691317377 Y78.28790268182767 E111.0805
G1 X52.856807296453496 Y79.85414420215588 E111.16568
G1 X52.233846222228145 Y81.43452785810781 E111.25043
G1 X51.923426345287254 Y82.17062601732302 E111.29028
G1 X51.54158868344652 Y82.9074312833194 E111.33169
G1 X51.09469719773662 Y83.6272659865673 E111.37396
G1 X50.60255087803078 Y84.2947747880074 E111.41533
G1 X50.04888626836171 Y84.93329221141886 E111.4575
G1 X49.45845210607095 Y85.51524109233537 E111.49886
G1 X48.84751184712577 Y86.03001482903919 E111.53871
G1 X48.18424568637279 Y86.50943322668367 E111.57954
G1 X47.44885463393879 Y86.95491049883118 E111.62244
G1 X46.69366459163155 Y87.33391973354719 E111.66459
G1 X45.939888762886696 Y87.64080407658214 E111.7052
G1 X45.145100740833 Y87.89394830424693 E111.74681
G1 X44.32768530178136 Y88.0848671351673 E111.78869
G1 X43.50602722204259 Y88.2107321422185 E111.83016
G1 X42.70841077286417 Y88.27012911183817 E111.87006
G1 X41.87543898462642 Y88.26871489827579 E111.91162
G1 X41.06368039982426 Y88.20224686084426 E111.95226
G1 X40.200303019995474 Y88.06294682495052 E111.99589
G1 X39.42460688103384 Y87.87414931437371 E112.03572
G1 X38.60719144198219 Y87.60403452396045 E112.07867
G1 X37.883821204828344 Y87.30351414195617 E112.11775
G1 X37.13075248286468 Y86.9181409462095 E112.15995
G1 X36.409503566054404 Y86.47549210118672 E112.20217
G1 X35.74977293920735 Y85.99395238319867 E112.24292
G1 X35.1006489140781 Y85.4353380260613 E112.28564
G1 X34.51516449925564 Y84.84561097055172 E112.3271
G1 X33.997562335427084 Y84.23891335229366 E112.36689
G1 X33.50541601572125 Y83.5643334830417 E112.40855
G1 X33.06700981138559 Y82.84449877979378 E112.4506
G1 X32.690121897013164 Y82.10415797989147 E112.49205
G1 X32.379702020072266 Y81.35108925792781 E112.53268
G1 X32.12655779240749 Y80.57751443930971 E112.57329
G1 X31.92291103942576 Y79.7275720883235 E112.61689
G1 X31.7942176052498 Y78.9073282221471 E112.65832
G1 X31.729870888161827 Y78.092034103439 E112.69912
G1 X31.729163781380638 Y77.29229633391702 E112.73902
G1 X31.795631818812183 Y76.43386870155655 E112.78197
G1 X31.925739466550503 Y75.61362483538015 E112.82341
G1 X32.12231515172036 Y74.79620939632852 E112.86535
G1 X32.36414567088616 Y74.0452619947084 E112.90471
G1 X32.690121897013164 Y73.25259529299827 E112.94747
G1 X33.07408087919745 Y72.49952657103461 E112.98964
G1 X33.4820814919421 Y71.82848223568857 E113.02882
G1 X33.98766284049047 Y71.12915362909507 E113.07188
G1 X34.50455789753784 Y70.51892047693107 E113.11177
G1 X35.09994180729691 Y69.9192939264849 E113.15393
G1 X35.715831813710395 Y69.38825673381379 E113.1945
G1 X36.41233199317915 Y68.87701853101592 E113.23761
G1 X37.117317454022135 Y68.44356207414856 E113.2789
G1 X37.81311052670969 Y68.0843518293058 E113.31796
G1 X38.6170909369188 Y67.74564768111745 E113.36149
G1 X40.172018748748016 Y67.13258610182871 E113.44488
G1 X41.737553162295036 Y66.45234937832724 E113.53003
G1 X43.26773223678272 Y65.72544360726748 E113.61455
G1 X44.77669810783482 Y64.94338350727514 E113.69934
G1 X46.289906619574026 Y64.09202694272655 E113.78597
G1 X47.738061307444084 Y63.20955767980574 E113.87057
G1 X49.19257995634481 Y62.252842204860336 E113.95743
G1 X50.55871025759721 Y61.28834855532189 E114.04086
G1 X51.89867760794572 Y60.26940768363207 E114.12484
G1 X53.22591703623288 Y59.188241415197844 E114.21025
G1 X54.50295188305578 Y58.07242691448547 E114.29486
G1 X55.755237992537154 Y56.90216519162174 E114.38037
G1 X56.94034895780581 Y55.715640012790715 E114.46403
G1 X58.09151879757751 Y54.48244578640137 E114.5482
G1 X59.204504871165135 Y53.206825153140834 E114.63266
G1 X60.28708535316173 Y51.87675729772894 E114.71822
G1 X61.30461201128918 Y50.53678994738044 E114.80216
G1 X62.28254068967017 Y49.150153549473615 E114.88681
G1 X63.221578495085915 Y47.720383637914416 E114.97215
G1 X64.12031121397402 Y46.24040914489097 E115.05854
